( This gcode generated by /Applications/EAGLE-6.1.0/ulp/pcb-gcode.ulp )
( Copyright 2005 by John Johnson. See readme.txt for licensing terms. )

( This file generated from the board /Users/lpatiny/git/legoino/eagle/modules/I2C/LCD-MCP23008/lcd-i2c.brd )
( This file generated 1/10/13 08:35  )

( T01 0.482600 )
( T02 0.800000 )
( T03 0.812800 )
( T04 1.000000 )
( T05 1.016000 )
( T06 2.360000 )
G21

G90
M05
G00 X139.7000 Y86.3600 Z193.0400 
M06 T01  ; 0.4826 
G00 Z0.5080 
M03
G04 P3.000000
G82 X33.0200 Y18.4150 Z-3.0480 F127.00 R0.5080 P10.000000
G82 X34.2900 Y26.6700 
G82 X34.9250 Y36.1950 
G82 X37.4650 Y33.6550 
G82 X39.3700 Y7.6200 
G82 X42.5450 Y36.1950 
G82 X43.1800 Y29.2100 
G82 X44.4500 Y33.6550 
G82 X46.3550 Y34.9250 
G82 X5.7150 Y29.2100 
G82 X6.3500 Y19.0500 
G82 X10.1600 Y12.0650 
G82 X10.7950 Y27.9400 
G82 X12.0650 Y34.2900 
G82 X1.2700 Y12.0650 
G82 X12.7000 Y13.3350 
G82 X14.6050 Y33.0200 
G82 X22.8600 Y8.2550 
G82 X24.1300 Y19.0500 
G82 X2.5400 Y30.4800 
G82 X26.6700 Y12.0650 
G82 X26.6700 Y1.9050 
M05
G00 X139.7000 Y86.3600 Z193.0400 
M06 T02  ; 0.8000 
G00 Z0.5080 
M03
G04 P3.000000
G82 X7.6200 Y6.7450 Z-3.0480 F127.00 R0.5080 P10.000000
G82 X8.6200 Y9.2850 
G82 X9.6600 Y6.7450 
G82 X10.6600 Y9.2850 
G82 X11.7000 Y6.7450 
G82 X12.7000 Y9.2850 
G82 X25.4000 Y6.7450 
G82 X26.4000 Y9.2850 
G82 X27.4400 Y6.7450 
G82 X28.4400 Y9.2850 
G82 X29.4800 Y6.7450 
G82 X30.4800 Y9.2850 
M05
G00 X139.7000 Y86.3600 Z193.0400 
M06 T03  ; 0.8128 
G00 Z0.5080 
M03
G04 P3.000000
G82 X33.1470 Y22.8600 Z-3.0480 F127.00 R0.5080 P10.000000
G82 X33.1470 Y30.4800 
G82 X35.6870 Y22.8600 
G82 X35.6870 Y30.4800 
G82 X40.6400 Y24.2570 
G82 X40.6400 Y26.7970 
G82 X40.6400 Y29.3370 
G82 X15.3670 Y22.8600 
G82 X15.3670 Y30.4800 
G82 X17.9070 Y22.8600 
G82 X17.9070 Y30.4800 
G82 X20.4470 Y22.8600 
G82 X20.4470 Y30.4800 
G82 X22.9870 Y22.8600 
G82 X22.9870 Y30.4800 
G82 X25.5270 Y22.8600 
G82 X25.5270 Y30.4800 
G82 X28.0670 Y22.8600 
G82 X28.0670 Y30.4800 
G82 X30.6070 Y22.8600 
G82 X30.6070 Y30.4800 
M05
G00 X139.7000 Y86.3600 Z193.0400 
M06 T04  ; 1.0000 
G00 Z0.5080 
M03
G04 P3.000000
G82 X5.7150 Y31.7500 Z-3.0480 F127.00 R0.5080 P10.000000
G82 X5.7150 Y34.2900 
G82 X5.7150 Y36.8300 
G82 X5.7150 Y39.3700 
M05
G00 X139.7000 Y86.3600 Z193.0400 
M06 T05  ; 1.0160 
G00 Z0.5080 
M03
G04 P3.000000
G82 X32.0040 Y16.3068 Z-3.0480 F127.00 R0.5080 P10.000000
G82 X34.5440 Y16.3068 
G82 X37.0840 Y16.3068 
G82 X39.6240 Y16.3068 
G82 X41.9100 Y5.0800 
G82 X41.9100 Y10.1600 
G82 X42.1640 Y16.3068 
G82 X44.7040 Y16.3068 
G82 X46.9900 Y7.6200 
G82 X6.6040 Y16.3068 
G82 X9.1440 Y16.3068 
G82 X11.6840 Y16.3068 
G82 X14.2240 Y16.3068 
G82 X16.7640 Y16.3068 
G82 X19.3040 Y16.3068 
G82 X21.8440 Y16.3068 
G82 X24.3840 Y16.3068 
G82 X26.9240 Y16.3068 
G82 X29.4640 Y16.3068 
M05
G00 X139.7000 Y86.3600 Z193.0400 
M06 T06  ; 2.3600 
G00 Z0.5080 
M03
G04 P3.000000
G82 X33.9400 Y4.4450 Z-3.0480 F127.00 R0.5080 P10.000000
G82 X4.1600 Y4.4450 
G82 X16.1600 Y4.4450 
G82 X21.9400 Y4.4450 
(File Footer)
T01 
G00 Z12.7000 
M05
M02
