( This gcode generated by /Applications/EAGLE-6.1.0/ulp/pcb-gcode.ulp )
( Copyright 2005 by John Johnson. See readme.txt for licensing terms. )

( This file generated from the board /Users/lpatiny/git/legoino/eagle/modules/I2C/LCD-MCP23008/lcd-i2c.brd )
( This file generated 1/10/13 08:35  )

G21

G90
G00 Z12.7000 
G00 X0 Y0
M03
G04 P3.000000
G00 Z0.5080 
G00 X1.5995 Y33.5185 
G01 Z-0.2540 F254.00 
G01 X4.3113 Y36.2302 
G01 X4.3978 Y36.1437 
G01 X4.5425 Y36.0470 
G01 X4.7033 Y35.9804 
G01 X4.8740 Y35.9465 
G01 X6.5560 Y35.9465 
G01 X6.7267 Y35.9804 
G01 X6.8875 Y36.0470 
G01 X7.0322 Y36.1437 
G01 X7.1553 Y36.2668 
G01 X7.2520 Y36.4115 
G01 X7.3186 Y36.5723 
G01 X7.3525 Y36.7430 
G01 X7.3525 Y36.9170 
G01 X7.3186 Y37.0877 
G01 X7.2520 Y37.2485 
G01 X7.1553 Y37.3932 
G01 X7.0322 Y37.5163 
G01 X6.8875 Y37.6130 
G01 X6.7267 Y37.6796 
G01 X6.5560 Y37.7135 
G01 X4.8740 Y37.7135 
G01 X4.7033 Y37.6796 
G01 X4.5425 Y37.6130 
G01 X4.3978 Y37.5163 
G01 X4.2747 Y37.3932 
G01 X4.1780 Y37.2485 
G01 X4.1114 Y37.0877 
G01 X4.0803 Y36.9314 
G01 X1.0063 Y33.8573 
G01 X0.9629 Y33.7822 
G01 X0.9405 Y33.6984 
G01 X0.9405 Y12.5376 
G01 X0.9175 Y12.5243 
G01 X0.8107 Y12.4175 
G01 X0.7351 Y12.2866 
G01 X0.6960 Y12.1406 
G01 X0.6960 Y11.9894 
G01 X0.7351 Y11.8434 
G01 X0.8107 Y11.7125 
G01 X0.9175 Y11.6057 
G01 X1.0484 Y11.5301 
G01 X1.1944 Y11.4910 
G01 X1.3456 Y11.4910 
G01 X1.4916 Y11.5301 
G01 X1.6225 Y11.6057 
G01 X1.7293 Y11.7125 
G01 X1.8049 Y11.8434 
G01 X1.8440 Y11.9894 
G01 X1.8440 Y12.1406 
G01 X1.8049 Y12.2866 
G01 X1.7293 Y12.4175 
G01 X1.6225 Y12.5243 
G01 X1.5995 Y12.5376 
G01 X1.5995 Y33.5185 
G00 Z0.5080 
G00 X35.6034 Y33.9845 
G01 Z-0.2540 F254.00 
G01 X35.5166 Y33.9845 
G01 X35.4328 Y33.9621 
G01 X35.3577 Y33.9187 
G01 X34.0877 Y32.6487 
G01 X34.0263 Y32.5873 
G01 X33.9829 Y32.5122 
G01 X33.9605 Y32.4284 
G01 X33.9605 Y27.1426 
G01 X33.9375 Y27.1293 
G01 X33.8307 Y27.0225 
G01 X33.7551 Y26.8916 
G01 X33.7160 Y26.7456 
G01 X33.7160 Y26.5944 
G01 X33.7551 Y26.4484 
G01 X33.8307 Y26.3175 
G01 X33.9375 Y26.2107 
G01 X34.0684 Y26.1351 
G01 X34.2144 Y26.0960 
G01 X34.3656 Y26.0960 
G01 X34.5116 Y26.1351 
G01 X34.6425 Y26.2107 
G01 X34.7493 Y26.3175 
G01 X34.8249 Y26.4484 
G01 X34.8640 Y26.5944 
G01 X34.8640 Y26.7456 
G01 X34.8249 Y26.8916 
G01 X34.7493 Y27.0225 
G01 X34.6425 Y27.1293 
G01 X34.6195 Y27.1426 
G01 X34.6195 Y32.2485 
G01 X35.6965 Y33.3255 
G01 X36.9924 Y33.3255 
G01 X37.0057 Y33.3025 
G01 X37.1125 Y33.1957 
G01 X37.2434 Y33.1201 
G01 X37.3894 Y33.0810 
G01 X37.5406 Y33.0810 
G01 X37.6866 Y33.1201 
G01 X37.8175 Y33.1957 
G01 X37.9243 Y33.3025 
G01 X37.9999 Y33.4334 
G01 X38.0390 Y33.5794 
G01 X38.0390 Y33.7306 
G01 X37.9999 Y33.8766 
G01 X37.9243 Y34.0075 
G01 X37.8175 Y34.1143 
G01 X37.6866 Y34.1899 
G01 X37.5406 Y34.2290 
G01 X37.3894 Y34.2290 
G01 X37.2434 Y34.1899 
G01 X37.1125 Y34.1143 
G01 X37.0057 Y34.0075 
G01 X36.9924 Y33.9845 
G01 X35.6034 Y33.9845 
G00 Z0.5080 
G00 X36.4769 Y29.7418 
G01 Z-0.2540 F254.00 
G01 X36.4769 Y31.2182 
G01 X36.4466 Y31.3708 
G01 X36.3870 Y31.5146 
G01 X36.3006 Y31.6440 
G01 X36.1906 Y31.7540 
G01 X36.0612 Y31.8404 
G01 X35.9174 Y31.9000 
G01 X35.7648 Y31.9303 
G01 X35.6092 Y31.9303 
G01 X35.4566 Y31.9000 
G01 X35.3128 Y31.8404 
G01 X35.1834 Y31.7540 
G01 X35.0734 Y31.6440 
G01 X34.9870 Y31.5146 
G01 X34.9274 Y31.3708 
G01 X34.8971 Y31.2182 
G01 X34.8971 Y29.7418 
G01 X34.9274 Y29.5892 
G01 X34.9870 Y29.4454 
G01 X35.0734 Y29.3160 
G01 X35.1834 Y29.2060 
G01 X35.3128 Y29.1196 
G01 X35.4566 Y29.0600 
G01 X35.6092 Y29.0297 
G01 X35.7648 Y29.0297 
G01 X35.9174 Y29.0600 
G01 X36.0612 Y29.1196 
G01 X36.1906 Y29.2060 
G01 X36.3006 Y29.3160 
G01 X36.3870 Y29.4454 
G01 X36.4466 Y29.5892 
G01 X36.4769 Y29.7418 
G00 Z0.5080 
G00 X26.3169 Y29.7418 
G01 Z-0.2540 F254.00 
G01 X26.3169 Y31.2182 
G01 X26.2866 Y31.3708 
G01 X26.2270 Y31.5146 
G01 X26.1406 Y31.6440 
G01 X26.0306 Y31.7540 
G01 X25.9012 Y31.8404 
G01 X25.7574 Y31.9000 
G01 X25.7295 Y31.9055 
G01 X25.7295 Y34.5005 
G01 X26.5528 Y34.5005 
G01 X26.6004 Y34.5202 
G01 X26.6368 Y34.5566 
G01 X26.6565 Y34.6042 
G01 X26.6565 Y36.2558 
G01 X26.6368 Y36.3034 
G01 X26.6004 Y36.3398 
G01 X26.5528 Y36.3595 
G01 X24.5012 Y36.3595 
G01 X24.4536 Y36.3398 
G01 X24.4172 Y36.3034 
G01 X24.3975 Y36.2558 
G01 X24.3975 Y34.6042 
G01 X24.4172 Y34.5566 
G01 X24.4536 Y34.5202 
G01 X24.5012 Y34.5005 
G01 X25.0705 Y34.5005 
G01 X25.0705 Y31.7854 
G01 X25.0234 Y31.7540 
G01 X24.9134 Y31.6440 
G01 X24.8270 Y31.5146 
G01 X24.7674 Y31.3708 
G01 X24.7371 Y31.2182 
G01 X24.7371 Y29.7418 
G01 X24.7674 Y29.5892 
G01 X24.8270 Y29.4454 
G01 X24.9134 Y29.3160 
G01 X25.0234 Y29.2060 
G01 X25.1528 Y29.1196 
G01 X25.2966 Y29.0600 
G01 X25.4492 Y29.0297 
G01 X25.6048 Y29.0297 
G01 X25.7574 Y29.0600 
G01 X25.9012 Y29.1196 
G01 X26.0306 Y29.2060 
G01 X26.1406 Y29.3160 
G01 X26.2270 Y29.4454 
G01 X26.2866 Y29.5892 
G01 X26.3169 Y29.7418 
G00 Z0.5080 
G00 X23.7769 Y29.7418 
G01 Z-0.2540 F254.00 
G01 X23.7769 Y31.2182 
G01 X23.7466 Y31.3708 
G01 X23.6870 Y31.5146 
G01 X23.6006 Y31.6440 
G01 X23.4906 Y31.7540 
G01 X23.3895 Y31.8215 
G01 X23.3895 Y32.4547 
G01 X23.3535 Y32.5894 
G01 X23.2837 Y32.7101 
G01 X23.1851 Y32.8087 
G01 X22.7545 Y33.2393 
G01 X22.7545 Y34.3597 
G01 X22.7185 Y34.4944 
G01 X22.6889 Y34.5457 
G01 X22.6998 Y34.5566 
G01 X22.7195 Y34.6042 
G01 X22.7195 Y36.2558 
G01 X22.6998 Y36.3034 
G01 X22.6634 Y36.3398 
G01 X22.6158 Y36.3595 
G01 X20.5642 Y36.3595 
G01 X20.5166 Y36.3398 
G01 X20.4802 Y36.3034 
G01 X20.4605 Y36.2558 
G01 X20.4605 Y34.6042 
G01 X20.4802 Y34.5566 
G01 X20.5166 Y34.5202 
G01 X20.5642 Y34.5005 
G01 X21.2657 Y34.5005 
G01 X21.6955 Y34.0707 
G01 X21.6955 Y32.9503 
G01 X21.7315 Y32.8156 
G01 X21.8013 Y32.6949 
G01 X22.3305 Y32.1657 
G01 X22.3305 Y31.5797 
G01 X22.2870 Y31.5146 
G01 X22.2274 Y31.3708 
G01 X22.1971 Y31.2182 
G01 X22.1971 Y29.7418 
G01 X22.2274 Y29.5892 
G01 X22.2870 Y29.4454 
G01 X22.3734 Y29.3160 
G01 X22.4834 Y29.2060 
G01 X22.6128 Y29.1196 
G01 X22.7566 Y29.0600 
G01 X22.9092 Y29.0297 
G01 X23.0648 Y29.0297 
G01 X23.2174 Y29.0600 
G01 X23.3612 Y29.1196 
G01 X23.4906 Y29.2060 
G01 X23.6006 Y29.3160 
G01 X23.6870 Y29.4454 
G01 X23.7466 Y29.5892 
G01 X23.7769 Y29.7418 
G00 Z0.5080 
G00 X21.2369 Y29.7418 
G01 Z-0.2540 F254.00 
G01 X21.2369 Y31.2182 
G01 X21.2066 Y31.3708 
G01 X21.1470 Y31.5146 
G01 X21.0606 Y31.6440 
G01 X20.9506 Y31.7540 
G01 X20.8212 Y31.8404 
G01 X20.6774 Y31.9000 
G01 X20.5248 Y31.9303 
G01 X20.3692 Y31.9303 
G01 X20.2166 Y31.9000 
G01 X20.0728 Y31.8404 
G01 X19.9434 Y31.7540 
G01 X19.8334 Y31.6440 
G01 X19.7470 Y31.5146 
G01 X19.6874 Y31.3708 
G01 X19.6571 Y31.2182 
G01 X19.6571 Y29.7418 
G01 X19.6874 Y29.5892 
G01 X19.7470 Y29.4454 
G01 X19.8334 Y29.3160 
G01 X19.9434 Y29.2060 
G01 X20.0728 Y29.1196 
G01 X20.2166 Y29.0600 
G01 X20.3692 Y29.0297 
G01 X20.5248 Y29.0297 
G01 X20.6774 Y29.0600 
G01 X20.8212 Y29.1196 
G01 X20.9506 Y29.2060 
G01 X21.0606 Y29.3160 
G01 X21.1470 Y29.4454 
G01 X21.2066 Y29.5892 
G01 X21.2369 Y29.7418 
G00 Z0.5080 
G00 X18.6969 Y29.7418 
G01 Z-0.2540 F254.00 
G01 X18.6969 Y31.2182 
G01 X18.6666 Y31.3708 
G01 X18.6070 Y31.5146 
G01 X18.5206 Y31.6440 
G01 X18.4106 Y31.7540 
G01 X18.2812 Y31.8404 
G01 X18.1374 Y31.9000 
G01 X17.9848 Y31.9303 
G01 X17.8292 Y31.9303 
G01 X17.6766 Y31.9000 
G01 X17.5328 Y31.8404 
G01 X17.4034 Y31.7540 
G01 X17.2934 Y31.6440 
G01 X17.2070 Y31.5146 
G01 X17.1474 Y31.3708 
G01 X17.1171 Y31.2182 
G01 X17.1171 Y29.7418 
G01 X17.1474 Y29.5892 
G01 X17.2070 Y29.4454 
G01 X17.2934 Y29.3160 
G01 X17.4034 Y29.2060 
G01 X17.5328 Y29.1196 
G01 X17.6766 Y29.0600 
G01 X17.8292 Y29.0297 
G01 X17.9848 Y29.0297 
G01 X18.1374 Y29.0600 
G01 X18.2812 Y29.1196 
G01 X18.4106 Y29.2060 
G01 X18.5206 Y29.3160 
G01 X18.6070 Y29.4454 
G01 X18.6666 Y29.5892 
G01 X18.6969 Y29.7418 
G00 Z0.5080 
G00 X16.1569 Y29.7418 
G01 Z-0.2540 F254.00 
G01 X16.1569 Y31.2182 
G01 X16.1266 Y31.3708 
G01 X16.0670 Y31.5146 
G01 X15.9806 Y31.6440 
G01 X15.8706 Y31.7540 
G01 X15.7412 Y31.8404 
G01 X15.5974 Y31.9000 
G01 X15.4448 Y31.9303 
G01 X15.2892 Y31.9303 
G01 X15.1366 Y31.9000 
G01 X14.9928 Y31.8404 
G01 X14.8634 Y31.7540 
G01 X14.7892 Y31.6797 
G01 X13.8645 Y32.6043 
G01 X13.8645 Y33.0897 
G01 X13.8285 Y33.2244 
G01 X13.7587 Y33.3451 
G01 X13.6601 Y33.4437 
G01 X12.6027 Y34.5012 
G01 X12.5999 Y34.5116 
G01 X12.5243 Y34.6425 
G01 X12.4175 Y34.7493 
G01 X12.2866 Y34.8249 
G01 X12.1406 Y34.8640 
G01 X11.9894 Y34.8640 
G01 X11.8434 Y34.8249 
G01 X11.7125 Y34.7493 
G01 X11.6057 Y34.6425 
G01 X11.5301 Y34.5116 
G01 X11.4910 Y34.3656 
G01 X11.4910 Y34.2144 
G01 X11.5301 Y34.0684 
G01 X11.6057 Y33.9375 
G01 X11.7125 Y33.8307 
G01 X11.8434 Y33.7551 
G01 X11.8538 Y33.7523 
G01 X12.8055 Y32.8007 
G01 X12.8055 Y32.3153 
G01 X12.8415 Y32.1806 
G01 X12.9113 Y32.0599 
G01 X14.1813 Y30.7899 
G01 X14.2799 Y30.6913 
G01 X14.4006 Y30.6215 
G01 X14.5353 Y30.5855 
G01 X14.5771 Y30.5855 
G01 X14.5771 Y29.7418 
G01 X14.6074 Y29.5892 
G01 X14.6670 Y29.4454 
G01 X14.7534 Y29.3160 
G01 X14.8634 Y29.2060 
G01 X14.9928 Y29.1196 
G01 X15.1366 Y29.0600 
G01 X15.2892 Y29.0297 
G01 X15.4448 Y29.0297 
G01 X15.5974 Y29.0600 
G01 X15.7412 Y29.1196 
G01 X15.8706 Y29.2060 
G01 X15.9806 Y29.3160 
G01 X16.0670 Y29.4454 
G01 X16.1266 Y29.5892 
G01 X16.1569 Y29.7418 
G00 Z0.5080 
G00 X16.1569 Y22.1218 
G01 Z-0.2540 F254.00 
G01 X16.1569 Y23.5982 
G01 X16.1266 Y23.7508 
G01 X16.0670 Y23.8946 
G01 X15.9806 Y24.0240 
G01 X15.8706 Y24.1340 
G01 X15.7412 Y24.2204 
G01 X15.5974 Y24.2800 
G01 X15.4448 Y24.3103 
G01 X15.2892 Y24.3103 
G01 X15.1366 Y24.2800 
G01 X14.9928 Y24.2204 
G01 X14.8634 Y24.1340 
G01 X14.7534 Y24.0240 
G01 X14.6670 Y23.8946 
G01 X14.6074 Y23.7508 
G01 X14.5771 Y23.5982 
G01 X14.5771 Y22.1218 
G01 X14.6074 Y21.9692 
G01 X14.6670 Y21.8254 
G01 X14.7534 Y21.6960 
G01 X14.8634 Y21.5860 
G01 X14.9928 Y21.4996 
G01 X15.1366 Y21.4400 
G01 X15.2892 Y21.4097 
G01 X15.4448 Y21.4097 
G01 X15.5974 Y21.4400 
G01 X15.7412 Y21.4996 
G01 X15.8706 Y21.5860 
G01 X15.9806 Y21.6960 
G01 X16.0670 Y21.8254 
G01 X16.1266 Y21.9692 
G01 X16.1569 Y22.1218 
G00 Z0.5080 
G00 X18.6969 Y23.5982 
G01 Z-0.2540 F254.00 
G01 X18.6666 Y23.7508 
G01 X18.6070 Y23.8946 
G01 X18.5206 Y24.0240 
G01 X18.4106 Y24.1340 
G01 X18.2812 Y24.2204 
G01 X18.1374 Y24.2800 
G01 X17.9848 Y24.3103 
G01 X17.8292 Y24.3103 
G01 X17.6766 Y24.2800 
G01 X17.5328 Y24.2204 
G01 X17.4034 Y24.1340 
G01 X17.2934 Y24.0240 
G01 X17.2070 Y23.8946 
G01 X17.1474 Y23.7508 
G01 X17.1171 Y23.5982 
G01 X17.1171 Y22.1218 
G01 X17.1474 Y21.9692 
G01 X17.2070 Y21.8254 
G01 X17.2934 Y21.6960 
G01 X17.4034 Y21.5860 
G01 X17.5328 Y21.4996 
G01 X17.6766 Y21.4400 
G01 X17.8292 Y21.4097 
G01 X17.9848 Y21.4097 
G01 X18.1374 Y21.4400 
G01 X18.2812 Y21.4996 
G01 X18.4106 Y21.5860 
G01 X18.5206 Y21.6960 
G01 X18.6070 Y21.8254 
G01 X18.6666 Y21.9692 
G01 X18.6953 Y22.1136 
G01 X18.7205 Y22.0885 
G01 X18.7205 Y21.5466 
G01 X18.7429 Y21.4628 
G01 X18.7863 Y21.3877 
G01 X20.0563 Y20.1177 
G01 X20.1177 Y20.0563 
G01 X20.1928 Y20.0129 
G01 X20.2766 Y19.9905 
G01 X21.6334 Y19.9905 
G01 X21.7172 Y20.0129 
G01 X21.7923 Y20.0563 
G01 X21.8537 Y20.1177 
G01 X21.8971 Y20.1928 
G01 X21.9195 Y20.2766 
G01 X21.9195 Y24.6285 
G01 X22.3615 Y25.0705 
G01 X23.8005 Y25.0705 
G01 X23.8005 Y19.5226 
G01 X23.7775 Y19.5093 
G01 X23.6707 Y19.4025 
G01 X23.5951 Y19.2716 
G01 X23.5560 Y19.1256 
G01 X23.5560 Y18.9744 
G01 X23.5951 Y18.8284 
G01 X23.6707 Y18.6975 
G01 X23.7775 Y18.5907 
G01 X23.9084 Y18.5151 
G01 X24.0544 Y18.4760 
G01 X24.2056 Y18.4760 
G01 X24.3516 Y18.5151 
G01 X24.4825 Y18.5907 
G01 X24.5893 Y18.6975 
G01 X24.6649 Y18.8284 
G01 X24.7040 Y18.9744 
G01 X24.7040 Y19.1256 
G01 X24.6649 Y19.2716 
G01 X24.5893 Y19.4025 
G01 X24.4825 Y19.5093 
G01 X24.4595 Y19.5226 
G01 X24.4595 Y25.4434 
G01 X24.4371 Y25.5272 
G01 X24.3937 Y25.6023 
G01 X24.3323 Y25.6637 
G01 X24.2572 Y25.7071 
G01 X24.1734 Y25.7295 
G01 X22.1816 Y25.7295 
G01 X22.0978 Y25.7071 
G01 X22.0227 Y25.6637 
G01 X21.9613 Y25.6023 
G01 X21.3263 Y24.9673 
G01 X21.2829 Y24.8922 
G01 X21.2605 Y24.8084 
G01 X21.2605 Y20.6495 
G01 X20.4565 Y20.6495 
G01 X19.3795 Y21.7265 
G01 X19.3795 Y22.2684 
G01 X19.3571 Y22.3522 
G01 X19.3137 Y22.4273 
G01 X19.2523 Y22.4887 
G01 X18.6969 Y23.0441 
G01 X18.6969 Y23.5982 
G00 Z0.5080 
G00 X26.3169 Y22.1218 
G01 Z-0.2540 F254.00 
G01 X26.3169 Y23.5982 
G01 X26.2866 Y23.7508 
G01 X26.2270 Y23.8946 
G01 X26.1406 Y24.0240 
G01 X26.0306 Y24.1340 
G01 X25.9012 Y24.2204 
G01 X25.7574 Y24.2800 
G01 X25.6048 Y24.3103 
G01 X25.4492 Y24.3103 
G01 X25.2966 Y24.2800 
G01 X25.1528 Y24.2204 
G01 X25.0234 Y24.1340 
G01 X24.9134 Y24.0240 
G01 X24.8270 Y23.8946 
G01 X24.7674 Y23.7508 
G01 X24.7371 Y23.5982 
G01 X24.7371 Y22.1218 
G01 X24.7674 Y21.9692 
G01 X24.8270 Y21.8254 
G01 X24.9134 Y21.6960 
G01 X25.0234 Y21.5860 
G01 X25.1528 Y21.4996 
G01 X25.2966 Y21.4400 
G01 X25.4492 Y21.4097 
G01 X25.6048 Y21.4097 
G01 X25.7574 Y21.4400 
G01 X25.9012 Y21.4996 
G01 X26.0306 Y21.5860 
G01 X26.1406 Y21.6960 
G01 X26.2270 Y21.8254 
G01 X26.2866 Y21.9692 
G01 X26.3169 Y22.1218 
G00 Z0.5080 
G00 X28.8569 Y22.1218 
G01 Z-0.2540 F254.00 
G01 X28.8569 Y23.5982 
G01 X28.8266 Y23.7508 
G01 X28.7670 Y23.8946 
G01 X28.6806 Y24.0240 
G01 X28.5706 Y24.1340 
G01 X28.4412 Y24.2204 
G01 X28.2974 Y24.2800 
G01 X28.1448 Y24.3103 
G01 X27.9892 Y24.3103 
G01 X27.8366 Y24.2800 
G01 X27.6928 Y24.2204 
G01 X27.5634 Y24.1340 
G01 X27.4534 Y24.0240 
G01 X27.3670 Y23.8946 
G01 X27.3074 Y23.7508 
G01 X27.2771 Y23.5982 
G01 X27.2771 Y22.1218 
G01 X27.3074 Y21.9692 
G01 X27.3670 Y21.8254 
G01 X27.4534 Y21.6960 
G01 X27.5634 Y21.5860 
G01 X27.6928 Y21.4996 
G01 X27.8366 Y21.4400 
G01 X27.9892 Y21.4097 
G01 X28.1448 Y21.4097 
G01 X28.2974 Y21.4400 
G01 X28.4412 Y21.4996 
G01 X28.5706 Y21.5860 
G01 X28.6806 Y21.6960 
G01 X28.7670 Y21.8254 
G01 X28.8266 Y21.9692 
G01 X28.8569 Y22.1218 
G00 Z0.5080 
G00 X31.3969 Y22.1218 
G01 Z-0.2540 F254.00 
G01 X31.3969 Y23.5982 
G01 X31.3666 Y23.7508 
G01 X31.3070 Y23.8946 
G01 X31.2206 Y24.0240 
G01 X31.1106 Y24.1340 
G01 X30.9812 Y24.2204 
G01 X30.8374 Y24.2800 
G01 X30.6848 Y24.3103 
G01 X30.5292 Y24.3103 
G01 X30.3766 Y24.2800 
G01 X30.2328 Y24.2204 
G01 X30.1034 Y24.1340 
G01 X29.9934 Y24.0240 
G01 X29.9070 Y23.8946 
G01 X29.8474 Y23.7508 
G01 X29.8171 Y23.5982 
G01 X29.8171 Y22.1218 
G01 X29.8474 Y21.9692 
G01 X29.9070 Y21.8254 
G01 X29.9934 Y21.6960 
G01 X30.1034 Y21.5860 
G01 X30.2328 Y21.4996 
G01 X30.3766 Y21.4400 
G01 X30.5292 Y21.4097 
G01 X30.6848 Y21.4097 
G01 X30.8374 Y21.4400 
G01 X30.9812 Y21.4996 
G01 X31.1106 Y21.5860 
G01 X31.2206 Y21.6960 
G01 X31.3070 Y21.8254 
G01 X31.3666 Y21.9692 
G01 X31.3969 Y22.1218 
G00 Z0.5080 
G00 X33.9369 Y22.1218 
G01 Z-0.2540 F254.00 
G01 X33.9369 Y23.5982 
G01 X33.9066 Y23.7508 
G01 X33.8470 Y23.8946 
G01 X33.7606 Y24.0240 
G01 X33.6506 Y24.1340 
G01 X33.5212 Y24.2204 
G01 X33.3774 Y24.2800 
G01 X33.2248 Y24.3103 
G01 X33.0692 Y24.3103 
G01 X32.9166 Y24.2800 
G01 X32.7728 Y24.2204 
G01 X32.6434 Y24.1340 
G01 X32.5334 Y24.0240 
G01 X32.4470 Y23.8946 
G01 X32.3874 Y23.7508 
G01 X32.3571 Y23.5982 
G01 X32.3571 Y22.1218 
G01 X32.3874 Y21.9692 
G01 X32.4470 Y21.8254 
G01 X32.5334 Y21.6960 
G01 X32.6434 Y21.5860 
G01 X32.7728 Y21.4996 
G01 X32.9166 Y21.4400 
G01 X33.0692 Y21.4097 
G01 X33.2248 Y21.4097 
G01 X33.3774 Y21.4400 
G01 X33.5212 Y21.4996 
G01 X33.6506 Y21.5860 
G01 X33.7606 Y21.6960 
G01 X33.8470 Y21.8254 
G01 X33.9066 Y21.9692 
G01 X33.9369 Y22.1218 
G00 Z0.5080 
G00 X31.9942 Y34.5005 
G01 Z-0.2540 F254.00 
G01 X32.1294 Y34.5005 
G01 X30.2777 Y32.6487 
G01 X30.2163 Y32.5873 
G01 X30.1729 Y32.5122 
G01 X30.1505 Y32.4284 
G01 X30.1505 Y31.7854 
G01 X30.1034 Y31.7540 
G01 X29.9934 Y31.6440 
G01 X29.9070 Y31.5146 
G01 X29.8474 Y31.3708 
G01 X29.8171 Y31.2182 
G01 X29.8171 Y29.7418 
G01 X29.8474 Y29.5892 
G01 X29.9070 Y29.4454 
G01 X29.9934 Y29.3160 
G01 X30.1034 Y29.2060 
G01 X30.1505 Y29.1746 
G01 X30.1505 Y28.2695 
G01 X22.9965 Y28.2695 
G01 X21.9195 Y29.3465 
G01 X21.9195 Y32.4284 
G01 X21.8971 Y32.5122 
G01 X21.8537 Y32.5873 
G01 X21.7923 Y32.6487 
G01 X21.7923 Y32.6487 
G01 X20.0145 Y34.4265 
G01 X20.0145 Y34.9684 
G01 X19.9921 Y35.0522 
G01 X19.9487 Y35.1273 
G01 X19.8873 Y35.1887 
G01 X18.4518 Y36.6243 
G01 X18.6059 Y36.6243 
G01 X18.6535 Y36.6440 
G01 X18.6899 Y36.6804 
G01 X18.7096 Y36.7280 
G01 X18.7096 Y37.9480 
G01 X18.6899 Y37.9956 
G01 X18.6535 Y38.0320 
G01 X18.6059 Y38.0517 
G01 X16.9541 Y38.0517 
G01 X16.9065 Y38.0320 
G01 X16.8701 Y37.9956 
G01 X16.8504 Y37.9480 
G01 X16.8504 Y36.7280 
G01 X16.8701 Y36.6804 
G01 X16.9065 Y36.6440 
G01 X16.9541 Y36.6243 
G01 X17.5197 Y36.6243 
G01 X19.3555 Y34.7885 
G01 X19.3555 Y34.2466 
G01 X19.3779 Y34.1628 
G01 X19.4213 Y34.0877 
G01 X19.4827 Y34.0263 
G01 X19.4827 Y34.0263 
G01 X21.2605 Y32.2485 
G01 X21.2605 Y29.1666 
G01 X21.2829 Y29.0828 
G01 X21.3263 Y29.0077 
G01 X22.5963 Y27.7377 
G01 X22.5963 Y27.7377 
G01 X22.6577 Y27.6763 
G01 X22.7328 Y27.6329 
G01 X22.8166 Y27.6105 
G01 X30.5234 Y27.6105 
G01 X30.6072 Y27.6329 
G01 X30.6823 Y27.6763 
G01 X30.7437 Y27.7377 
G01 X30.7871 Y27.8128 
G01 X30.8095 Y27.8966 
G01 X30.8095 Y29.0545 
G01 X30.8374 Y29.0600 
G01 X30.9812 Y29.1196 
G01 X31.1106 Y29.2060 
G01 X31.2206 Y29.3160 
G01 X31.3070 Y29.4454 
G01 X31.3666 Y29.5892 
G01 X31.3969 Y29.7418 
G01 X31.3969 Y31.2182 
G01 X31.3666 Y31.3708 
G01 X31.3070 Y31.5146 
G01 X31.2206 Y31.6440 
G01 X31.1106 Y31.7540 
G01 X30.9812 Y31.8404 
G01 X30.8374 Y31.9000 
G01 X30.8095 Y31.9055 
G01 X30.8095 Y32.2485 
G01 X33.0615 Y34.5005 
G01 X34.0458 Y34.5005 
G01 X34.0934 Y34.5202 
G01 X34.1298 Y34.5566 
G01 X34.1495 Y34.6042 
G01 X34.1495 Y36.2558 
G01 X34.1298 Y36.3034 
G01 X34.0934 Y36.3398 
G01 X34.0458 Y36.3595 
G01 X31.9942 Y36.3595 
G01 X31.9466 Y36.3398 
G01 X31.9102 Y36.3034 
G01 X31.8905 Y36.2558 
G01 X31.8905 Y34.6042 
G01 X31.9102 Y34.5566 
G01 X31.9466 Y34.5202 
G01 X31.9942 Y34.5005 
G00 Z0.5080 
G00 X28.1842 Y34.5005 
G01 Z-0.2540 F254.00 
G01 X28.3194 Y34.5005 
G01 X28.3113 Y34.4923 
G01 X28.2679 Y34.4172 
G01 X28.2455 Y34.3334 
G01 X28.2455 Y33.1565 
G01 X27.7377 Y32.6487 
G01 X27.6763 Y32.5873 
G01 X27.6329 Y32.5122 
G01 X27.6105 Y32.4284 
G01 X27.6105 Y31.7854 
G01 X27.5634 Y31.7540 
G01 X27.4534 Y31.6440 
G01 X27.3670 Y31.5146 
G01 X27.3074 Y31.3708 
G01 X27.2771 Y31.2182 
G01 X27.2771 Y29.7418 
G01 X27.3074 Y29.5892 
G01 X27.3670 Y29.4454 
G01 X27.4534 Y29.3160 
G01 X27.5634 Y29.2060 
G01 X27.6928 Y29.1196 
G01 X27.8366 Y29.0600 
G01 X27.9892 Y29.0297 
G01 X28.1448 Y29.0297 
G01 X28.2974 Y29.0600 
G01 X28.4412 Y29.1196 
G01 X28.5706 Y29.2060 
G01 X28.6806 Y29.3160 
G01 X28.7670 Y29.4454 
G01 X28.8266 Y29.5892 
G01 X28.8569 Y29.7418 
G01 X28.8569 Y31.2182 
G01 X28.8266 Y31.3708 
G01 X28.7670 Y31.5146 
G01 X28.6806 Y31.6440 
G01 X28.5706 Y31.7540 
G01 X28.4412 Y31.8404 
G01 X28.2974 Y31.9000 
G01 X28.2695 Y31.9055 
G01 X28.2695 Y32.2485 
G01 X28.8387 Y32.8177 
G01 X28.8821 Y32.8928 
G01 X28.9045 Y32.9766 
G01 X28.9045 Y34.1535 
G01 X29.2515 Y34.5005 
G01 X30.2358 Y34.5005 
G01 X30.2834 Y34.5202 
G01 X30.3198 Y34.5566 
G01 X30.3395 Y34.6042 
G01 X30.3395 Y36.2558 
G01 X30.3198 Y36.3034 
G01 X30.2834 Y36.3398 
G01 X30.2358 Y36.3595 
G01 X28.1842 Y36.3595 
G01 X28.1366 Y36.3398 
G01 X28.1002 Y36.3034 
G01 X28.0805 Y36.2558 
G01 X28.0805 Y34.6042 
G01 X28.1002 Y34.5566 
G01 X28.1366 Y34.5202 
G01 X28.1842 Y34.5005 
G00 Z0.5080 
G00 X13.7791 Y36.6243 
G01 Z-0.2540 F254.00 
G01 X14.2755 Y36.6243 
G01 X14.2755 Y33.4926 
G01 X14.2525 Y33.4793 
G01 X14.1457 Y33.3725 
G01 X14.0701 Y33.2416 
G01 X14.0310 Y33.0956 
G01 X14.0310 Y32.9444 
G01 X14.0701 Y32.7984 
G01 X14.1457 Y32.6675 
G01 X14.2525 Y32.5607 
G01 X14.3834 Y32.4851 
G01 X14.5294 Y32.4460 
G01 X14.6806 Y32.4460 
G01 X14.8266 Y32.4851 
G01 X14.9575 Y32.5607 
G01 X15.0643 Y32.6675 
G01 X15.1399 Y32.7984 
G01 X15.1790 Y32.9444 
G01 X15.1790 Y33.0956 
G01 X15.1399 Y33.2416 
G01 X15.0643 Y33.3725 
G01 X14.9575 Y33.4793 
G01 X14.9345 Y33.4926 
G01 X14.9345 Y36.6243 
G01 X15.4309 Y36.6243 
G01 X15.4785 Y36.6440 
G01 X15.5149 Y36.6804 
G01 X15.5346 Y36.7280 
G01 X15.5346 Y37.9480 
G01 X15.5149 Y37.9956 
G01 X15.4785 Y38.0320 
G01 X15.4309 Y38.0517 
G01 X13.7791 Y38.0517 
G01 X13.7315 Y38.0320 
G01 X13.6951 Y37.9956 
G01 X13.6754 Y37.9480 
G01 X13.6754 Y36.7280 
G01 X13.6951 Y36.6804 
G01 X13.7315 Y36.6440 
G01 X13.7791 Y36.6243 
G00 Z0.5080 
G00 X10.6041 Y36.6243 
G01 Z-0.2540 F254.00 
G01 X10.7582 Y36.6243 
G01 X10.5927 Y36.4587 
G01 X10.5313 Y36.3973 
G01 X10.4879 Y36.3222 
G01 X10.4655 Y36.2384 
G01 X10.4655 Y28.4126 
G01 X10.4425 Y28.3993 
G01 X10.3357 Y28.2925 
G01 X10.2601 Y28.1616 
G01 X10.2210 Y28.0156 
G01 X10.2210 Y27.8644 
G01 X10.2601 Y27.7184 
G01 X10.3357 Y27.5875 
G01 X10.4425 Y27.4807 
G01 X10.5734 Y27.4051 
G01 X10.7194 Y27.3660 
G01 X10.8706 Y27.3660 
G01 X11.0166 Y27.4051 
G01 X11.1475 Y27.4807 
G01 X11.2543 Y27.5875 
G01 X11.3299 Y27.7184 
G01 X11.3690 Y27.8644 
G01 X11.3690 Y28.0156 
G01 X11.3299 Y28.1616 
G01 X11.2543 Y28.2925 
G01 X11.1475 Y28.3993 
G01 X11.1245 Y28.4126 
G01 X11.1245 Y36.0585 
G01 X11.6323 Y36.5663 
G01 X11.6903 Y36.6243 
G01 X12.2559 Y36.6243 
G01 X12.3035 Y36.6440 
G01 X12.3399 Y36.6804 
G01 X12.3596 Y36.7280 
G01 X12.3596 Y37.9480 
G01 X12.3399 Y37.9956 
G01 X12.3035 Y38.0320 
G01 X12.2559 Y38.0517 
G01 X10.6041 Y38.0517 
G01 X10.5565 Y38.0320 
G01 X10.5201 Y37.9956 
G01 X10.5004 Y37.9480 
G01 X10.5004 Y36.7280 
G01 X10.5201 Y36.6804 
G01 X10.5565 Y36.6440 
G01 X10.6041 Y36.6243 
G00 Z0.5080 
G00 X37.8558 Y36.3595 
G01 Z-0.2540 F254.00 
G01 X35.8042 Y36.3595 
G01 X35.7566 Y36.3398 
G01 X35.7202 Y36.3034 
G01 X35.7005 Y36.2558 
G01 X35.7005 Y35.8895 
G01 X35.4115 Y35.8895 
G01 X35.4599 Y35.9734 
G01 X35.4990 Y36.1194 
G01 X35.4990 Y36.2706 
G01 X35.4599 Y36.4166 
G01 X35.3843 Y36.5475 
G01 X35.2775 Y36.6543 
G01 X35.1466 Y36.7299 
G01 X35.0006 Y36.7690 
G01 X34.8494 Y36.7690 
G01 X34.7034 Y36.7299 
G01 X34.5725 Y36.6543 
G01 X34.4657 Y36.5475 
G01 X34.3901 Y36.4166 
G01 X34.3510 Y36.2706 
G01 X34.3510 Y36.1194 
G01 X34.3901 Y35.9734 
G01 X34.4657 Y35.8425 
G01 X34.5725 Y35.7357 
G01 X34.5955 Y35.7224 
G01 X34.5955 Y34.4265 
G01 X32.8177 Y32.6487 
G01 X32.7563 Y32.5873 
G01 X32.7129 Y32.5122 
G01 X32.6905 Y32.4284 
G01 X32.6905 Y31.7854 
G01 X32.6434 Y31.7540 
G01 X32.5334 Y31.6440 
G01 X32.4470 Y31.5146 
G01 X32.3874 Y31.3708 
G01 X32.3571 Y31.2182 
G01 X32.3571 Y29.7418 
G01 X32.3874 Y29.5892 
G01 X32.4470 Y29.4454 
G01 X32.5334 Y29.3160 
G01 X32.6434 Y29.2060 
G01 X32.7728 Y29.1196 
G01 X32.9166 Y29.0600 
G01 X33.0692 Y29.0297 
G01 X33.2248 Y29.0297 
G01 X33.3774 Y29.0600 
G01 X33.5212 Y29.1196 
G01 X33.6506 Y29.2060 
G01 X33.7606 Y29.3160 
G01 X33.8470 Y29.4454 
G01 X33.9066 Y29.5892 
G01 X33.9369 Y29.7418 
G01 X33.9369 Y31.2182 
G01 X33.9066 Y31.3708 
G01 X33.8470 Y31.5146 
G01 X33.7606 Y31.6440 
G01 X33.6506 Y31.7540 
G01 X33.5212 Y31.8404 
G01 X33.3774 Y31.9000 
G01 X33.3495 Y31.9055 
G01 X33.3495 Y32.2485 
G01 X35.1887 Y34.0877 
G01 X35.2321 Y34.1628 
G01 X35.2545 Y34.2466 
G01 X35.2545 Y35.2305 
G01 X35.7005 Y35.2305 
G01 X35.7005 Y34.6042 
G01 X35.7202 Y34.5566 
G01 X35.7566 Y34.5202 
G01 X35.8042 Y34.5005 
G01 X37.8558 Y34.5005 
G01 X37.9034 Y34.5202 
G01 X37.9398 Y34.5566 
G01 X37.9595 Y34.6042 
G01 X37.9595 Y36.2558 
G01 X37.9398 Y36.3034 
G01 X37.9034 Y36.3398 
G01 X37.8558 Y36.3595 
G00 Z0.5080 
G00 X41.6658 Y36.3595 
G01 Z-0.2540 F254.00 
G01 X39.6142 Y36.3595 
G01 X39.5666 Y36.3398 
G01 X39.5302 Y36.3034 
G01 X39.5105 Y36.2558 
G01 X39.5105 Y34.6042 
G01 X39.5302 Y34.5566 
G01 X39.5666 Y34.5202 
G01 X39.6142 Y34.5005 
G01 X40.5985 Y34.5005 
G01 X40.9455 Y34.1535 
G01 X40.9455 Y32.9766 
G01 X40.9679 Y32.8928 
G01 X41.0113 Y32.8177 
G01 X42.8505 Y30.9785 
G01 X42.8505 Y29.6826 
G01 X42.8275 Y29.6693 
G01 X42.7207 Y29.5625 
G01 X42.6451 Y29.4316 
G01 X42.6060 Y29.2856 
G01 X42.6060 Y29.1344 
G01 X42.6451 Y28.9884 
G01 X42.7207 Y28.8575 
G01 X42.8275 Y28.7507 
G01 X42.9584 Y28.6751 
G01 X43.1044 Y28.6360 
G01 X43.2556 Y28.6360 
G01 X43.4016 Y28.6751 
G01 X43.5325 Y28.7507 
G01 X43.6393 Y28.8575 
G01 X43.7149 Y28.9884 
G01 X43.7540 Y29.1344 
G01 X43.7540 Y29.2856 
G01 X43.7149 Y29.4316 
G01 X43.6393 Y29.5625 
G01 X43.5325 Y29.6693 
G01 X43.5095 Y29.6826 
G01 X43.5095 Y31.1584 
G01 X43.4871 Y31.2422 
G01 X43.4437 Y31.3173 
G01 X43.3823 Y31.3787 
G01 X41.6045 Y33.1565 
G01 X41.6045 Y34.3334 
G01 X41.5821 Y34.4172 
G01 X41.5387 Y34.4923 
G01 X41.5306 Y34.5005 
G01 X41.6658 Y34.5005 
G01 X41.7134 Y34.5202 
G01 X41.7498 Y34.5566 
G01 X41.7695 Y34.6042 
G01 X41.7695 Y35.2305 
G01 X41.9534 Y35.2305 
G01 X42.0372 Y35.2529 
G01 X42.1123 Y35.2963 
G01 X42.1737 Y35.3577 
G01 X42.4439 Y35.6278 
G01 X42.4694 Y35.6210 
G01 X42.6206 Y35.6210 
G01 X42.7666 Y35.6601 
G01 X42.8975 Y35.7357 
G01 X43.0043 Y35.8425 
G01 X43.0799 Y35.9734 
G01 X43.1190 Y36.1194 
G01 X43.1190 Y36.2706 
G01 X43.0799 Y36.4166 
G01 X43.0043 Y36.5475 
G01 X42.8975 Y36.6543 
G01 X42.7666 Y36.7299 
G01 X42.6206 Y36.7690 
G01 X42.4694 Y36.7690 
G01 X42.3234 Y36.7299 
G01 X42.1925 Y36.6543 
G01 X42.0857 Y36.5475 
G01 X42.0101 Y36.4166 
G01 X41.9710 Y36.2706 
G01 X41.9710 Y36.1194 
G01 X41.9778 Y36.0939 
G01 X41.7735 Y35.8895 
G01 X41.7695 Y35.8895 
G01 X41.7695 Y36.2558 
G01 X41.7498 Y36.3034 
G01 X41.7134 Y36.3398 
G01 X41.6658 Y36.3595 
G00 Z0.5080 
G00 X41.3782 Y25.0469 
G01 Z-0.2540 F254.00 
G01 X39.9018 Y25.0469 
G01 X39.7492 Y25.0166 
G01 X39.6054 Y24.9570 
G01 X39.4760 Y24.8706 
G01 X39.3660 Y24.7606 
G01 X39.2796 Y24.6312 
G01 X39.2200 Y24.4874 
G01 X39.1897 Y24.3348 
G01 X39.1897 Y24.1792 
G01 X39.2200 Y24.0266 
G01 X39.2796 Y23.8828 
G01 X39.3660 Y23.7534 
G01 X39.4760 Y23.6434 
G01 X39.6054 Y23.5570 
G01 X39.7492 Y23.4974 
G01 X39.9018 Y23.4671 
G01 X41.3782 Y23.4671 
G01 X41.5308 Y23.4974 
G01 X41.6746 Y23.5570 
G01 X41.8040 Y23.6434 
G01 X41.9140 Y23.7534 
G01 X42.0004 Y23.8828 
G01 X42.0600 Y24.0266 
G01 X42.0903 Y24.1792 
G01 X42.0903 Y24.3348 
G01 X42.0600 Y24.4874 
G01 X42.0004 Y24.6312 
G01 X41.9140 Y24.7606 
G01 X41.8040 Y24.8706 
G01 X41.6746 Y24.9570 
G01 X41.5308 Y25.0166 
G01 X41.3782 Y25.0469 
G00 Z0.5080 
G00 X39.9018 Y30.1269 
G01 Z-0.2540 F254.00 
G01 X39.7492 Y30.0966 
G01 X39.6054 Y30.0370 
G01 X39.4760 Y29.9506 
G01 X39.3660 Y29.8406 
G01 X39.2796 Y29.7112 
G01 X39.2200 Y29.5674 
G01 X39.1897 Y29.4148 
G01 X39.1897 Y29.2592 
G01 X39.2200 Y29.1066 
G01 X39.2796 Y28.9628 
G01 X39.3660 Y28.8334 
G01 X39.4760 Y28.7234 
G01 X39.6054 Y28.6370 
G01 X39.7492 Y28.5774 
G01 X39.9018 Y28.5471 
G01 X41.3782 Y28.5471 
G01 X41.3805 Y28.5475 
G01 X41.3805 Y28.5053 
G01 X41.4165 Y28.3706 
G01 X41.4863 Y28.2499 
G01 X43.2855 Y26.4507 
G01 X43.2855 Y20.2503 
G01 X43.3215 Y20.1156 
G01 X43.3913 Y19.9949 
G01 X43.9205 Y19.4657 
G01 X43.9205 Y17.5009 
G01 X43.9139 Y17.4911 
G01 X43.8467 Y17.3289 
G01 X43.8125 Y17.1566 
G01 X43.8125 Y15.4570 
G01 X43.8467 Y15.2847 
G01 X43.9139 Y15.1225 
G01 X43.9205 Y15.1127 
G01 X43.9205 Y9.7443 
G01 X41.5849 Y7.4087 
G01 X41.5849 Y7.4087 
G01 X41.4863 Y7.3101 
G01 X41.4165 Y7.1894 
G01 X41.3805 Y7.0547 
G01 X41.3805 Y5.9715 
G01 X41.0602 Y5.9715 
G01 X40.8879 Y5.9373 
G01 X40.7257 Y5.8701 
G01 X40.5797 Y5.7725 
G01 X40.4555 Y5.6483 
G01 X40.3579 Y5.5023 
G01 X40.2907 Y5.3401 
G01 X40.2565 Y5.1678 
G01 X40.2565 Y4.9922 
G01 X40.2907 Y4.8199 
G01 X40.3579 Y4.6577 
G01 X40.4555 Y4.5117 
G01 X40.5797 Y4.3875 
G01 X40.7257 Y4.2899 
G01 X40.8879 Y4.2227 
G01 X41.0602 Y4.1885 
G01 X42.7598 Y4.1885 
G01 X42.9321 Y4.2227 
G01 X43.0943 Y4.2899 
G01 X43.2403 Y4.3875 
G01 X43.3645 Y4.5117 
G01 X43.4621 Y4.6577 
G01 X43.5293 Y4.8199 
G01 X43.5635 Y4.9922 
G01 X43.5635 Y5.1678 
G01 X43.5293 Y5.3401 
G01 X43.4621 Y5.5023 
G01 X43.3645 Y5.6483 
G01 X43.2403 Y5.7725 
G01 X43.0943 Y5.8701 
G01 X42.9321 Y5.9373 
G01 X42.7598 Y5.9715 
G01 X42.4395 Y5.9715 
G01 X42.4395 Y6.7657 
G01 X44.7751 Y9.1013 
G01 X44.7751 Y9.1013 
G01 X44.8737 Y9.1999 
G01 X44.9435 Y9.3206 
G01 X44.9795 Y9.4553 
G01 X44.9795 Y14.6939 
G01 X45.1263 Y14.7547 
G01 X45.2723 Y14.8523 
G01 X45.3965 Y14.9765 
G01 X45.4941 Y15.1225 
G01 X45.5613 Y15.2847 
G01 X45.5955 Y15.4570 
G01 X45.5955 Y17.1566 
G01 X45.5613 Y17.3289 
G01 X45.4941 Y17.4911 
G01 X45.3965 Y17.6371 
G01 X45.2723 Y17.7613 
G01 X45.1263 Y17.8589 
G01 X44.9795 Y17.9197 
G01 X44.9795 Y19.7547 
G01 X44.9435 Y19.8894 
G01 X44.8737 Y20.0101 
G01 X44.7751 Y20.1087 
G01 X44.3445 Y20.5393 
G01 X44.3445 Y26.7397 
G01 X44.3085 Y26.8744 
G01 X44.2387 Y26.9951 
G01 X44.1401 Y27.0937 
G01 X42.4395 Y28.7943 
G01 X42.4395 Y29.9147 
G01 X42.4034 Y30.0494 
G01 X42.3337 Y30.1701 
G01 X42.2351 Y30.2687 
G01 X42.1144 Y30.3385 
G01 X41.9797 Y30.3745 
G01 X40.5703 Y30.3745 
G01 X40.4356 Y30.3385 
G01 X40.3149 Y30.2687 
G01 X40.2163 Y30.1701 
G01 X40.1913 Y30.1269 
G01 X39.9018 Y30.1269 
G00 Z0.5080 
G00 X41.3782 Y27.5869 
G01 Z-0.2540 F254.00 
G01 X39.9018 Y27.5869 
G01 X39.7492 Y27.5566 
G01 X39.6054 Y27.4970 
G01 X39.4760 Y27.4106 
G01 X39.3660 Y27.3006 
G01 X39.2796 Y27.1712 
G01 X39.2200 Y27.0274 
G01 X39.1897 Y26.8748 
G01 X39.1897 Y26.7192 
G01 X39.2200 Y26.5666 
G01 X39.2796 Y26.4228 
G01 X39.3660 Y26.2934 
G01 X39.4760 Y26.1834 
G01 X39.6054 Y26.0970 
G01 X39.7492 Y26.0374 
G01 X39.9018 Y26.0071 
G01 X41.3782 Y26.0071 
G01 X41.5308 Y26.0374 
G01 X41.6746 Y26.0970 
G01 X41.8040 Y26.1834 
G01 X41.9140 Y26.2934 
G01 X42.0004 Y26.4228 
G01 X42.0600 Y26.5666 
G01 X42.0903 Y26.7192 
G01 X42.0903 Y26.8748 
G01 X42.0600 Y27.0274 
G01 X42.0004 Y27.1712 
G01 X41.9140 Y27.3006 
G01 X41.8040 Y27.4106 
G01 X41.6746 Y27.4970 
G01 X41.5308 Y27.5566 
G01 X41.3782 Y27.5869 
G00 Z0.5080 
G00 X43.4242 Y37.3005 
G01 Z-0.2540 F254.00 
G01 X45.4758 Y37.3005 
G01 X45.5234 Y37.3202 
G01 X45.5598 Y37.3566 
G01 X45.5795 Y37.4042 
G01 X45.5795 Y37.7705 
G01 X46.0255 Y37.7705 
G01 X46.0255 Y35.3976 
G01 X46.0025 Y35.3843 
G01 X45.8957 Y35.2775 
G01 X45.8201 Y35.1466 
G01 X45.7810 Y35.0006 
G01 X45.7810 Y34.8494 
G01 X45.8201 Y34.7034 
G01 X45.8957 Y34.5725 
G01 X46.0025 Y34.4657 
G01 X46.1334 Y34.3901 
G01 X46.2794 Y34.3510 
G01 X46.4306 Y34.3510 
G01 X46.5766 Y34.3901 
G01 X46.7075 Y34.4657 
G01 X46.8143 Y34.5725 
G01 X46.8899 Y34.7034 
G01 X46.9290 Y34.8494 
G01 X46.9290 Y35.0006 
G01 X46.8899 Y35.1466 
G01 X46.8143 Y35.2775 
G01 X46.7075 Y35.3843 
G01 X46.6845 Y35.3976 
G01 X46.6845 Y38.1434 
G01 X46.6621 Y38.2272 
G01 X46.6187 Y38.3023 
G01 X46.5573 Y38.3637 
G01 X46.4822 Y38.4071 
G01 X46.3984 Y38.4295 
G01 X45.5795 Y38.4295 
G01 X45.5795 Y39.0558 
G01 X45.5598 Y39.1034 
G01 X45.5234 Y39.1398 
G01 X45.4758 Y39.1595 
G01 X43.4242 Y39.1595 
G01 X43.3766 Y39.1398 
G01 X43.3402 Y39.1034 
G01 X43.3205 Y39.0558 
G01 X43.3205 Y37.4042 
G01 X43.3402 Y37.3566 
G01 X43.3766 Y37.3202 
G01 X43.4242 Y37.3005 
G00 Z0.5080 
G00 X43.4242 Y34.5005 
G01 Z-0.2540 F254.00 
G01 X44.1205 Y34.5005 
G01 X44.1205 Y34.1276 
G01 X44.0975 Y34.1143 
G01 X43.9907 Y34.0075 
G01 X43.9151 Y33.8766 
G01 X43.8760 Y33.7306 
G01 X43.8760 Y33.5794 
G01 X43.9151 Y33.4334 
G01 X43.9907 Y33.3025 
G01 X44.0975 Y33.1957 
G01 X44.2284 Y33.1201 
G01 X44.3744 Y33.0810 
G01 X44.5256 Y33.0810 
G01 X44.6716 Y33.1201 
G01 X44.8025 Y33.1957 
G01 X44.9093 Y33.3025 
G01 X44.9849 Y33.4334 
G01 X45.0240 Y33.5794 
G01 X45.0240 Y33.7306 
G01 X44.9849 Y33.8766 
G01 X44.9093 Y34.0075 
G01 X44.8025 Y34.1143 
G01 X44.7795 Y34.1276 
G01 X44.7795 Y34.5005 
G01 X45.4758 Y34.5005 
G01 X45.5234 Y34.5202 
G01 X45.5598 Y34.5566 
G01 X45.5795 Y34.6042 
G01 X45.5795 Y36.2558 
G01 X45.5598 Y36.3034 
G01 X45.5234 Y36.3398 
G01 X45.4758 Y36.3595 
G01 X43.4242 Y36.3595 
G01 X43.3766 Y36.3398 
G01 X43.3402 Y36.3034 
G01 X43.3205 Y36.2558 
G01 X43.3205 Y34.6042 
G01 X43.3402 Y34.5566 
G01 X43.3766 Y34.5202 
G01 X43.4242 Y34.5005 
G00 Z0.5080 
G00 X5.0365 Y26.1988 
G01 Z-0.2540 F254.00 
G01 X5.0365 Y24.3472 
G01 X5.0562 Y24.2996 
G01 X5.0926 Y24.2632 
G01 X5.1402 Y24.2435 
G01 X5.1855 Y24.2435 
G01 X5.1855 Y22.5965 
G01 X4.8632 Y22.5965 
G01 X4.8156 Y22.5768 
G01 X4.7792 Y22.5404 
G01 X4.7595 Y22.4928 
G01 X4.7595 Y20.9412 
G01 X4.7792 Y20.8936 
G01 X4.8156 Y20.8572 
G01 X4.8632 Y20.8375 
G01 X5.8205 Y20.8375 
G01 X5.8205 Y19.2809 
G01 X5.8151 Y19.2716 
G01 X5.7760 Y19.1256 
G01 X5.7760 Y18.9744 
G01 X5.8151 Y18.8284 
G01 X5.8907 Y18.6975 
G01 X5.9975 Y18.5907 
G01 X6.1284 Y18.5151 
G01 X6.2744 Y18.4760 
G01 X6.4256 Y18.4760 
G01 X6.5716 Y18.5151 
G01 X6.7025 Y18.5907 
G01 X6.8093 Y18.6975 
G01 X6.8849 Y18.8284 
G01 X6.9240 Y18.9744 
G01 X6.9240 Y19.1256 
G01 X6.8849 Y19.2716 
G01 X6.8795 Y19.2809 
G01 X6.8795 Y20.8436 
G01 X6.9124 Y20.8572 
G01 X6.9488 Y20.8936 
G01 X6.9685 Y20.9412 
G01 X6.9685 Y22.4928 
G01 X6.9488 Y22.5404 
G01 X6.9124 Y22.5768 
G01 X6.8648 Y22.5965 
G01 X6.2445 Y22.5965 
G01 X6.2445 Y24.2435 
G01 X6.7918 Y24.2435 
G01 X6.8394 Y24.2632 
G01 X6.8758 Y24.2996 
G01 X6.8955 Y24.3472 
G01 X6.8955 Y26.1988 
G01 X6.8758 Y26.2464 
G01 X6.8394 Y26.2828 
G01 X6.7918 Y26.3025 
G01 X6.2445 Y26.3025 
G01 X6.2445 Y28.9791 
G01 X6.2499 Y28.9884 
G01 X6.2890 Y29.1344 
G01 X6.2890 Y29.2856 
G01 X6.2499 Y29.4316 
G01 X6.1743 Y29.5625 
G01 X6.0675 Y29.6693 
G01 X5.9366 Y29.7449 
G01 X5.7906 Y29.7840 
G01 X5.6394 Y29.7840 
G01 X5.4934 Y29.7449 
G01 X5.3625 Y29.6693 
G01 X5.2557 Y29.5625 
G01 X5.1801 Y29.4316 
G01 X5.1410 Y29.2856 
G01 X5.1410 Y29.1344 
G01 X5.1801 Y28.9884 
G01 X5.1855 Y28.9791 
G01 X5.1855 Y26.3025 
G01 X5.1402 Y26.3025 
G01 X5.0926 Y26.2828 
G01 X5.0562 Y26.2464 
G01 X5.0365 Y26.1988 
G00 Z0.5080 
G00 X40.5155 Y15.4570 
G01 Z-0.2540 F254.00 
G01 X40.5155 Y17.1566 
G01 X40.4813 Y17.3289 
G01 X40.4141 Y17.4911 
G01 X40.3165 Y17.6371 
G01 X40.1923 Y17.7613 
G01 X40.0463 Y17.8589 
G01 X39.8841 Y17.9261 
G01 X39.7118 Y17.9603 
G01 X39.5362 Y17.9603 
G01 X39.3639 Y17.9261 
G01 X39.2017 Y17.8589 
G01 X39.0557 Y17.7613 
G01 X38.9315 Y17.6371 
G01 X38.8339 Y17.4911 
G01 X38.7667 Y17.3289 
G01 X38.7325 Y17.1566 
G01 X38.7325 Y15.4570 
G01 X38.7667 Y15.2847 
G01 X38.8339 Y15.1225 
G01 X38.9315 Y14.9765 
G01 X39.0405 Y14.8675 
G01 X39.0405 Y8.0926 
G01 X39.0175 Y8.0793 
G01 X38.9107 Y7.9725 
G01 X38.8351 Y7.8416 
G01 X38.7960 Y7.6956 
G01 X38.7960 Y7.5444 
G01 X38.8351 Y7.3984 
G01 X38.9107 Y7.2675 
G01 X39.0175 Y7.1607 
G01 X39.1484 Y7.0851 
G01 X39.2944 Y7.0460 
G01 X39.4456 Y7.0460 
G01 X39.5916 Y7.0851 
G01 X39.7225 Y7.1607 
G01 X39.8293 Y7.2675 
G01 X39.9049 Y7.3984 
G01 X39.9440 Y7.5444 
G01 X39.9440 Y7.6956 
G01 X39.9049 Y7.8416 
G01 X39.8293 Y7.9725 
G01 X39.7225 Y8.0793 
G01 X39.6995 Y8.0926 
G01 X39.6995 Y14.6533 
G01 X39.7118 Y14.6533 
G01 X39.8841 Y14.6875 
G01 X40.0463 Y14.7547 
G01 X40.1923 Y14.8523 
G01 X40.3165 Y14.9765 
G01 X40.4141 Y15.1225 
G01 X40.4813 Y15.2847 
G01 X40.5155 Y15.4570 
G00 Z0.5080 
G00 X37.9755 Y15.4570 
G01 Z-0.2540 F254.00 
G01 X37.9755 Y17.1566 
G01 X37.9413 Y17.3289 
G01 X37.8741 Y17.4911 
G01 X37.7765 Y17.6371 
G01 X37.6523 Y17.7613 
G01 X37.5063 Y17.8589 
G01 X37.3441 Y17.9261 
G01 X37.1718 Y17.9603 
G01 X37.1595 Y17.9603 
G01 X37.1595 Y19.0934 
G01 X37.1371 Y19.1772 
G01 X37.0937 Y19.2523 
G01 X37.0323 Y19.3137 
G01 X36.9572 Y19.3571 
G01 X36.8734 Y19.3795 
G01 X33.6116 Y19.3795 
G01 X33.5278 Y19.3571 
G01 X33.4527 Y19.3137 
G01 X33.1211 Y18.9822 
G01 X33.0956 Y18.9890 
G01 X32.9444 Y18.9890 
G01 X32.7984 Y18.9499 
G01 X32.6675 Y18.8743 
G01 X32.5607 Y18.7675 
G01 X32.4851 Y18.6366 
G01 X32.4460 Y18.4906 
G01 X32.4460 Y18.3394 
G01 X32.4851 Y18.1934 
G01 X32.5607 Y18.0625 
G01 X32.6675 Y17.9557 
G01 X32.7984 Y17.8801 
G01 X32.9444 Y17.8410 
G01 X33.0956 Y17.8410 
G01 X33.2416 Y17.8801 
G01 X33.3725 Y17.9557 
G01 X33.4793 Y18.0625 
G01 X33.5549 Y18.1934 
G01 X33.5940 Y18.3394 
G01 X33.5940 Y18.4906 
G01 X33.5872 Y18.5161 
G01 X33.7915 Y18.7205 
G01 X36.5005 Y18.7205 
G01 X36.5005 Y17.7461 
G01 X36.3915 Y17.6371 
G01 X36.2939 Y17.4911 
G01 X36.2267 Y17.3289 
G01 X36.1925 Y17.1566 
G01 X36.1925 Y15.4570 
G01 X36.2267 Y15.2847 
G01 X36.2939 Y15.1225 
G01 X36.3915 Y14.9765 
G01 X36.5157 Y14.8523 
G01 X36.6617 Y14.7547 
G01 X36.8239 Y14.6875 
G01 X36.9962 Y14.6533 
G01 X37.1718 Y14.6533 
G01 X37.3441 Y14.6875 
G01 X37.5063 Y14.7547 
G01 X37.6523 Y14.8523 
G01 X37.7765 Y14.9765 
G01 X37.8741 Y15.1225 
G01 X37.9413 Y15.2847 
G01 X37.9755 Y15.4570 
G00 Z0.5080 
G00 X35.4355 Y15.4570 
G01 Z-0.2540 F254.00 
G01 X35.4355 Y17.1566 
G01 X35.4013 Y17.3289 
G01 X35.3341 Y17.4911 
G01 X35.2365 Y17.6371 
G01 X35.1123 Y17.7613 
G01 X34.9663 Y17.8589 
G01 X34.8041 Y17.9261 
G01 X34.6318 Y17.9603 
G01 X34.4562 Y17.9603 
G01 X34.2839 Y17.9261 
G01 X34.1217 Y17.8589 
G01 X33.9757 Y17.7613 
G01 X33.8515 Y17.6371 
G01 X33.7539 Y17.4911 
G01 X33.6867 Y17.3289 
G01 X33.6525 Y17.1566 
G01 X33.6525 Y15.4570 
G01 X33.6867 Y15.2847 
G01 X33.7539 Y15.1225 
G01 X33.8515 Y14.9765 
G01 X33.9757 Y14.8523 
G01 X34.1217 Y14.7547 
G01 X34.2839 Y14.6875 
G01 X34.4562 Y14.6533 
G01 X34.6318 Y14.6533 
G01 X34.8041 Y14.6875 
G01 X34.9663 Y14.7547 
G01 X35.1123 Y14.8523 
G01 X35.2365 Y14.9765 
G01 X35.3341 Y15.1225 
G01 X35.4013 Y15.2847 
G01 X35.4355 Y15.4570 
G00 Z0.5080 
G00 X32.8955 Y15.4570 
G01 Z-0.2540 F254.00 
G01 X32.8955 Y17.1566 
G01 X32.8613 Y17.3289 
G01 X32.7941 Y17.4911 
G01 X32.6965 Y17.6371 
G01 X32.5723 Y17.7613 
G01 X32.4263 Y17.8589 
G01 X32.2641 Y17.9261 
G01 X32.0918 Y17.9603 
G01 X32.0795 Y17.9603 
G01 X32.0795 Y19.0934 
G01 X32.0571 Y19.1772 
G01 X32.0137 Y19.2523 
G01 X31.9523 Y19.3137 
G01 X29.5395 Y21.7265 
G01 X29.5395 Y26.7134 
G01 X29.5171 Y26.7972 
G01 X29.4737 Y26.8723 
G01 X29.4123 Y26.9337 
G01 X29.3372 Y26.9771 
G01 X29.2534 Y26.9995 
G01 X22.1816 Y26.9995 
G01 X22.0978 Y26.9771 
G01 X22.0227 Y26.9337 
G01 X21.9613 Y26.8723 
G01 X20.0563 Y24.9673 
G01 X20.0129 Y24.8922 
G01 X19.9905 Y24.8084 
G01 X19.9905 Y24.1654 
G01 X19.9434 Y24.1340 
G01 X19.8334 Y24.0240 
G01 X19.7470 Y23.8946 
G01 X19.6874 Y23.7508 
G01 X19.6571 Y23.5982 
G01 X19.6571 Y22.1218 
G01 X19.6874 Y21.9692 
G01 X19.7470 Y21.8254 
G01 X19.8334 Y21.6960 
G01 X19.9434 Y21.5860 
G01 X20.0728 Y21.4996 
G01 X20.2166 Y21.4400 
G01 X20.3692 Y21.4097 
G01 X20.5248 Y21.4097 
G01 X20.6774 Y21.4400 
G01 X20.8212 Y21.4996 
G01 X20.9506 Y21.5860 
G01 X21.0606 Y21.6960 
G01 X21.1470 Y21.8254 
G01 X21.2066 Y21.9692 
G01 X21.2369 Y22.1218 
G01 X21.2369 Y23.5982 
G01 X21.2066 Y23.7508 
G01 X21.1470 Y23.8946 
G01 X21.0606 Y24.0240 
G01 X20.9506 Y24.1340 
G01 X20.8212 Y24.2204 
G01 X20.6774 Y24.2800 
G01 X20.6495 Y24.2855 
G01 X20.6495 Y24.6285 
G01 X22.3615 Y26.3405 
G01 X28.8805 Y26.3405 
G01 X28.8805 Y21.5466 
G01 X28.9029 Y21.4628 
G01 X28.9463 Y21.3877 
G01 X31.4205 Y18.9135 
G01 X31.4205 Y17.7461 
G01 X31.3115 Y17.6371 
G01 X31.2139 Y17.4911 
G01 X31.1467 Y17.3289 
G01 X31.1125 Y17.1566 
G01 X31.1125 Y15.4570 
G01 X31.1467 Y15.2847 
G01 X31.2139 Y15.1225 
G01 X31.3115 Y14.9765 
G01 X31.4357 Y14.8523 
G01 X31.5817 Y14.7547 
G01 X31.7439 Y14.6875 
G01 X31.9162 Y14.6533 
G01 X32.0918 Y14.6533 
G01 X32.2641 Y14.6875 
G01 X32.4263 Y14.7547 
G01 X32.5723 Y14.8523 
G01 X32.6965 Y14.9765 
G01 X32.7941 Y15.1225 
G01 X32.8613 Y15.2847 
G01 X32.8955 Y15.4570 
G00 Z0.5080 
G00 X30.3555 Y15.4570 
G01 Z-0.2540 F254.00 
G01 X30.3555 Y17.1566 
G01 X30.3213 Y17.3289 
G01 X30.2541 Y17.4911 
G01 X30.1565 Y17.6371 
G01 X30.0323 Y17.7613 
G01 X29.8863 Y17.8589 
G01 X29.7241 Y17.9261 
G01 X29.5518 Y17.9603 
G01 X29.3762 Y17.9603 
G01 X29.2039 Y17.9261 
G01 X29.0417 Y17.8589 
G01 X28.8957 Y17.7613 
G01 X28.7715 Y17.6371 
G01 X28.6739 Y17.4911 
G01 X28.6067 Y17.3289 
G01 X28.5725 Y17.1566 
G01 X28.5725 Y15.4570 
G01 X28.6067 Y15.2847 
G01 X28.6739 Y15.1225 
G01 X28.7715 Y14.9765 
G01 X28.8957 Y14.8523 
G01 X29.0417 Y14.7547 
G01 X29.2039 Y14.6875 
G01 X29.3762 Y14.6533 
G01 X29.5518 Y14.6533 
G01 X29.7241 Y14.6875 
G01 X29.8863 Y14.7547 
G01 X30.0323 Y14.8523 
G01 X30.1565 Y14.9765 
G01 X30.2541 Y15.1225 
G01 X30.3213 Y15.2847 
G01 X30.3555 Y15.4570 
G00 Z0.5080 
G00 X27.8155 Y15.4570 
G01 Z-0.2540 F254.00 
G01 X27.8155 Y17.1566 
G01 X27.7813 Y17.3289 
G01 X27.7141 Y17.4911 
G01 X27.6165 Y17.6371 
G01 X27.4923 Y17.7613 
G01 X27.3463 Y17.8589 
G01 X27.1841 Y17.9261 
G01 X27.0118 Y17.9603 
G01 X26.8362 Y17.9603 
G01 X26.6639 Y17.9261 
G01 X26.5017 Y17.8589 
G01 X26.3557 Y17.7613 
G01 X26.2315 Y17.6371 
G01 X26.1339 Y17.4911 
G01 X26.0667 Y17.3289 
G01 X26.0325 Y17.1566 
G01 X26.0325 Y15.4570 
G01 X26.0667 Y15.2847 
G01 X26.1339 Y15.1225 
G01 X26.2315 Y14.9765 
G01 X26.3557 Y14.8523 
G01 X26.5017 Y14.7547 
G01 X26.6639 Y14.6875 
G01 X26.8362 Y14.6533 
G01 X27.0118 Y14.6533 
G01 X27.1841 Y14.6875 
G01 X27.3463 Y14.7547 
G01 X27.4923 Y14.8523 
G01 X27.6165 Y14.9765 
G01 X27.7141 Y15.1225 
G01 X27.7813 Y15.2847 
G01 X27.8155 Y15.4570 
G00 Z0.5080 
G00 X25.2755 Y15.4570 
G01 Z-0.2540 F254.00 
G01 X25.2755 Y17.1566 
G01 X25.2413 Y17.3289 
G01 X25.1741 Y17.4911 
G01 X25.0765 Y17.6371 
G01 X24.9523 Y17.7613 
G01 X24.8063 Y17.8589 
G01 X24.6441 Y17.9261 
G01 X24.4718 Y17.9603 
G01 X24.2962 Y17.9603 
G01 X24.1239 Y17.9261 
G01 X23.9617 Y17.8589 
G01 X23.8157 Y17.7613 
G01 X23.6915 Y17.6371 
G01 X23.5939 Y17.4911 
G01 X23.5267 Y17.3289 
G01 X23.4925 Y17.1566 
G01 X23.4925 Y15.4570 
G01 X23.5267 Y15.2847 
G01 X23.5939 Y15.1225 
G01 X23.6915 Y14.9765 
G01 X23.8157 Y14.8523 
G01 X23.9617 Y14.7547 
G01 X24.1239 Y14.6875 
G01 X24.2962 Y14.6533 
G01 X24.4718 Y14.6533 
G01 X24.6441 Y14.6875 
G01 X24.8063 Y14.7547 
G01 X24.9523 Y14.8523 
G01 X25.0765 Y14.9765 
G01 X25.1741 Y15.1225 
G01 X25.2413 Y15.2847 
G01 X25.2755 Y15.4570 
G00 Z0.5080 
G00 X22.7355 Y15.4570 
G01 Z-0.2540 F254.00 
G01 X22.7355 Y17.1566 
G01 X22.7013 Y17.3289 
G01 X22.6341 Y17.4911 
G01 X22.5365 Y17.6371 
G01 X22.4123 Y17.7613 
G01 X22.2663 Y17.8589 
G01 X22.1041 Y17.9261 
G01 X21.9318 Y17.9603 
G01 X21.7562 Y17.9603 
G01 X21.5839 Y17.9261 
G01 X21.4217 Y17.8589 
G01 X21.2757 Y17.7613 
G01 X21.1515 Y17.6371 
G01 X21.0539 Y17.4911 
G01 X20.9867 Y17.3289 
G01 X20.9525 Y17.1566 
G01 X20.9525 Y15.4570 
G01 X20.9867 Y15.2847 
G01 X21.0539 Y15.1225 
G01 X21.1515 Y14.9765 
G01 X21.2757 Y14.8523 
G01 X21.4217 Y14.7547 
G01 X21.5839 Y14.6875 
G01 X21.7562 Y14.6533 
G01 X21.9318 Y14.6533 
G01 X22.1041 Y14.6875 
G01 X22.2663 Y14.7547 
G01 X22.4123 Y14.8523 
G01 X22.5365 Y14.9765 
G01 X22.6341 Y15.1225 
G01 X22.7013 Y15.2847 
G01 X22.7355 Y15.4570 
G00 Z0.5080 
G00 X20.1955 Y15.4570 
G01 Z-0.2540 F254.00 
G01 X20.1955 Y17.1566 
G01 X20.1901 Y17.1840 
G01 X23.1237 Y20.1177 
G01 X23.1671 Y20.1928 
G01 X23.1895 Y20.2766 
G01 X23.1895 Y21.4345 
G01 X23.2174 Y21.4400 
G01 X23.3612 Y21.4996 
G01 X23.4906 Y21.5860 
G01 X23.6006 Y21.6960 
G01 X23.6870 Y21.8254 
G01 X23.7466 Y21.9692 
G01 X23.7769 Y22.1218 
G01 X23.7769 Y23.5982 
G01 X23.7466 Y23.7508 
G01 X23.6870 Y23.8946 
G01 X23.6006 Y24.0240 
G01 X23.4906 Y24.1340 
G01 X23.3612 Y24.2204 
G01 X23.2174 Y24.2800 
G01 X23.0648 Y24.3103 
G01 X22.9092 Y24.3103 
G01 X22.7566 Y24.2800 
G01 X22.6128 Y24.2204 
G01 X22.4834 Y24.1340 
G01 X22.3734 Y24.0240 
G01 X22.2870 Y23.8946 
G01 X22.2274 Y23.7508 
G01 X22.1971 Y23.5982 
G01 X22.1971 Y22.1218 
G01 X22.2274 Y21.9692 
G01 X22.2870 Y21.8254 
G01 X22.3734 Y21.6960 
G01 X22.4834 Y21.5860 
G01 X22.5305 Y21.5546 
G01 X22.5305 Y20.4565 
G01 X19.8501 Y17.7761 
G01 X19.7263 Y17.8589 
G01 X19.5641 Y17.9261 
G01 X19.3918 Y17.9603 
G01 X19.2162 Y17.9603 
G01 X19.0439 Y17.9261 
G01 X18.8817 Y17.8589 
G01 X18.7357 Y17.7613 
G01 X18.6115 Y17.6371 
G01 X18.5139 Y17.4911 
G01 X18.4467 Y17.3289 
G01 X18.4125 Y17.1566 
G01 X18.4125 Y15.4570 
G01 X18.4467 Y15.2847 
G01 X18.5139 Y15.1225 
G01 X18.6115 Y14.9765 
G01 X18.7357 Y14.8523 
G01 X18.8817 Y14.7547 
G01 X19.0439 Y14.6875 
G01 X19.2162 Y14.6533 
G01 X19.3918 Y14.6533 
G01 X19.5641 Y14.6875 
G01 X19.7263 Y14.7547 
G01 X19.8723 Y14.8523 
G01 X19.9965 Y14.9765 
G01 X20.0941 Y15.1225 
G01 X20.1613 Y15.2847 
G01 X20.1955 Y15.4570 
G00 Z0.5080 
G00 X17.6555 Y15.4570 
G01 Z-0.2540 F254.00 
G01 X17.6555 Y17.1566 
G01 X17.6213 Y17.3289 
G01 X17.5541 Y17.4911 
G01 X17.4565 Y17.6371 
G01 X17.3323 Y17.7613 
G01 X17.1863 Y17.8589 
G01 X17.0241 Y17.9261 
G01 X16.8518 Y17.9603 
G01 X16.6762 Y17.9603 
G01 X16.5039 Y17.9261 
G01 X16.3417 Y17.8589 
G01 X16.1957 Y17.7613 
G01 X16.0715 Y17.6371 
G01 X15.9739 Y17.4911 
G01 X15.9067 Y17.3289 
G01 X15.8725 Y17.1566 
G01 X15.8725 Y15.4570 
G01 X15.9067 Y15.2847 
G01 X15.9739 Y15.1225 
G01 X16.0715 Y14.9765 
G01 X16.1957 Y14.8523 
G01 X16.3417 Y14.7547 
G01 X16.5039 Y14.6875 
G01 X16.6762 Y14.6533 
G01 X16.8518 Y14.6533 
G01 X17.0241 Y14.6875 
G01 X17.1863 Y14.7547 
G01 X17.3323 Y14.8523 
G01 X17.4565 Y14.9765 
G01 X17.5541 Y15.1225 
G01 X17.6213 Y15.2847 
G01 X17.6555 Y15.4570 
G00 Z0.5080 
G00 X15.1155 Y15.4570 
G01 Z-0.2540 F254.00 
G01 X15.1155 Y17.1566 
G01 X15.0813 Y17.3289 
G01 X15.0141 Y17.4911 
G01 X14.9165 Y17.6371 
G01 X14.7923 Y17.7613 
G01 X14.6463 Y17.8589 
G01 X14.4841 Y17.9261 
G01 X14.3118 Y17.9603 
G01 X14.1362 Y17.9603 
G01 X13.9639 Y17.9261 
G01 X13.8017 Y17.8589 
G01 X13.6557 Y17.7613 
G01 X13.5315 Y17.6371 
G01 X13.4339 Y17.4911 
G01 X13.3667 Y17.3289 
G01 X13.3325 Y17.1566 
G01 X13.3325 Y15.4570 
G01 X13.3667 Y15.2847 
G01 X13.4339 Y15.1225 
G01 X13.5315 Y14.9765 
G01 X13.6557 Y14.8523 
G01 X13.8017 Y14.7547 
G01 X13.9639 Y14.6875 
G01 X14.1362 Y14.6533 
G01 X14.3118 Y14.6533 
G01 X14.4841 Y14.6875 
G01 X14.6463 Y14.7547 
G01 X14.7923 Y14.8523 
G01 X14.9165 Y14.9765 
G01 X15.0141 Y15.1225 
G01 X15.0813 Y15.2847 
G01 X15.1155 Y15.4570 
G00 Z0.5080 
G00 X12.5755 Y15.4570 
G01 Z-0.2540 F254.00 
G01 X12.5755 Y17.1566 
G01 X12.5413 Y17.3289 
G01 X12.4741 Y17.4911 
G01 X12.3765 Y17.6371 
G01 X12.2523 Y17.7613 
G01 X12.1063 Y17.8589 
G01 X11.9441 Y17.9261 
G01 X11.7718 Y17.9603 
G01 X11.5962 Y17.9603 
G01 X11.4239 Y17.9261 
G01 X11.2617 Y17.8589 
G01 X11.1157 Y17.7613 
G01 X10.9915 Y17.6371 
G01 X10.8939 Y17.4911 
G01 X10.8267 Y17.3289 
G01 X10.7925 Y17.1566 
G01 X10.7925 Y15.4570 
G01 X10.8267 Y15.2847 
G01 X10.8939 Y15.1225 
G01 X10.9915 Y14.9765 
G01 X11.1157 Y14.8523 
G01 X11.2617 Y14.7547 
G01 X11.4239 Y14.6875 
G01 X11.5962 Y14.6533 
G01 X11.7718 Y14.6533 
G01 X11.9441 Y14.6875 
G01 X12.1063 Y14.7547 
G01 X12.2523 Y14.8523 
G01 X12.3765 Y14.9765 
G01 X12.4741 Y15.1225 
G01 X12.5413 Y15.2847 
G01 X12.5755 Y15.4570 
G00 Z0.5080 
G00 X10.0355 Y15.4570 
G01 Z-0.2540 F254.00 
G01 X10.0355 Y17.1566 
G01 X10.0013 Y17.3289 
G01 X9.9341 Y17.4911 
G01 X9.8365 Y17.6371 
G01 X9.7123 Y17.7613 
G01 X9.5663 Y17.8589 
G01 X9.4195 Y17.9197 
G01 X9.4195 Y20.8375 
G01 X9.6148 Y20.8375 
G01 X9.6624 Y20.8572 
G01 X9.6988 Y20.8936 
G01 X9.7185 Y20.9412 
G01 X9.7185 Y22.4928 
G01 X9.6988 Y22.5404 
G01 X9.6624 Y22.5768 
G01 X9.6148 Y22.5965 
G01 X9.4195 Y22.5965 
G01 X9.4195 Y24.2435 
G01 X9.5918 Y24.2435 
G01 X9.6394 Y24.2632 
G01 X9.6758 Y24.2996 
G01 X9.6955 Y24.3472 
G01 X9.6955 Y26.1988 
G01 X9.6758 Y26.2464 
G01 X9.6394 Y26.2828 
G01 X9.5918 Y26.3025 
G01 X9.4195 Y26.3025 
G01 X9.4195 Y28.3557 
G01 X9.9487 Y28.8849 
G01 X10.0184 Y29.0056 
G01 X10.0545 Y29.1403 
G01 X10.0545 Y38.2055 
G01 X10.5197 Y38.2055 
G01 X10.5201 Y38.2044 
G01 X10.5565 Y38.1680 
G01 X10.6041 Y38.1483 
G01 X12.2559 Y38.1483 
G01 X12.3035 Y38.1680 
G01 X12.3399 Y38.2044 
G01 X12.3403 Y38.2055 
G01 X13.6947 Y38.2055 
G01 X13.6951 Y38.2044 
G01 X13.7315 Y38.1680 
G01 X13.7791 Y38.1483 
G01 X15.4309 Y38.1483 
G01 X15.4785 Y38.1680 
G01 X15.5149 Y38.2044 
G01 X15.5153 Y38.2055 
G01 X16.8697 Y38.2055 
G01 X16.8701 Y38.2044 
G01 X16.9065 Y38.1680 
G01 X16.9541 Y38.1483 
G01 X18.6059 Y38.1483 
G01 X18.6535 Y38.1680 
G01 X18.6899 Y38.2044 
G01 X18.6903 Y38.2055 
G01 X18.8307 Y38.2055 
G01 X19.3599 Y37.6763 
G01 X19.4806 Y37.6065 
G01 X19.6153 Y37.5705 
G01 X20.4605 Y37.5705 
G01 X20.4605 Y37.4042 
G01 X20.4802 Y37.3566 
G01 X20.5166 Y37.3202 
G01 X20.5642 Y37.3005 
G01 X22.6158 Y37.3005 
G01 X22.6634 Y37.3202 
G01 X22.6998 Y37.3566 
G01 X22.7195 Y37.4042 
G01 X22.7195 Y39.0558 
G01 X22.6998 Y39.1034 
G01 X22.6634 Y39.1398 
G01 X22.6158 Y39.1595 
G01 X20.5642 Y39.1595 
G01 X20.5166 Y39.1398 
G01 X20.4802 Y39.1034 
G01 X20.4605 Y39.0558 
G01 X20.4605 Y38.6295 
G01 X19.9043 Y38.6295 
G01 X19.4737 Y39.0601 
G01 X19.3751 Y39.1587 
G01 X19.2544 Y39.2285 
G01 X19.1197 Y39.2645 
G01 X18.7096 Y39.2645 
G01 X18.7096 Y39.4720 
G01 X18.6899 Y39.5196 
G01 X18.6535 Y39.5560 
G01 X18.6059 Y39.5757 
G01 X16.9541 Y39.5757 
G01 X16.9065 Y39.5560 
G01 X16.8701 Y39.5196 
G01 X16.8504 Y39.4720 
G01 X16.8504 Y39.2645 
G01 X15.5346 Y39.2645 
G01 X15.5346 Y39.4720 
G01 X15.5149 Y39.5196 
G01 X15.4785 Y39.5560 
G01 X15.4309 Y39.5757 
G01 X13.7791 Y39.5757 
G01 X13.7315 Y39.5560 
G01 X13.6951 Y39.5196 
G01 X13.6754 Y39.4720 
G01 X13.6754 Y39.2645 
G01 X12.3596 Y39.2645 
G01 X12.3596 Y39.4720 
G01 X12.3399 Y39.5196 
G01 X12.3035 Y39.5560 
G01 X12.2559 Y39.5757 
G01 X10.6041 Y39.5757 
G01 X10.5565 Y39.5560 
G01 X10.5201 Y39.5196 
G01 X10.5004 Y39.4720 
G01 X10.5004 Y39.2645 
G01 X9.4553 Y39.2645 
G01 X9.3206 Y39.2285 
G01 X9.1999 Y39.1587 
G01 X9.1013 Y39.0601 
G01 X9.0315 Y38.9394 
G01 X8.9955 Y38.8047 
G01 X8.9955 Y29.4293 
G01 X8.8900 Y29.3239 
G01 X7.0912 Y31.1227 
G01 X7.1553 Y31.1868 
G01 X7.2520 Y31.3315 
G01 X7.3186 Y31.4923 
G01 X7.3525 Y31.6630 
G01 X7.3525 Y31.8370 
G01 X7.3186 Y32.0077 
G01 X7.2520 Y32.1685 
G01 X7.1553 Y32.3132 
G01 X7.0322 Y32.4363 
G01 X6.8875 Y32.5330 
G01 X6.7267 Y32.5996 
G01 X6.5560 Y32.6335 
G01 X4.8740 Y32.6335 
G01 X4.7033 Y32.5996 
G01 X4.5425 Y32.5330 
G01 X4.3978 Y32.4363 
G01 X4.2747 Y32.3132 
G01 X4.1780 Y32.1685 
G01 X4.1114 Y32.0077 
G01 X4.0775 Y31.8370 
G01 X4.0775 Y31.6630 
G01 X4.1114 Y31.4923 
G01 X4.1780 Y31.3315 
G01 X4.2747 Y31.1868 
G01 X4.3978 Y31.0637 
G01 X4.5425 Y30.9670 
G01 X4.7033 Y30.9004 
G01 X4.8740 Y30.8665 
G01 X5.8497 Y30.8665 
G01 X8.3605 Y28.3557 
G01 X8.3605 Y26.3025 
G01 X7.9402 Y26.3025 
G01 X7.8926 Y26.2828 
G01 X7.8562 Y26.2464 
G01 X7.8365 Y26.1988 
G01 X7.8365 Y24.3472 
G01 X7.8562 Y24.2996 
G01 X7.8926 Y24.2632 
G01 X7.9402 Y24.2435 
G01 X8.3605 Y24.2435 
G01 X8.3605 Y22.5965 
G01 X7.6132 Y22.5965 
G01 X7.5656 Y22.5768 
G01 X7.5292 Y22.5404 
G01 X7.5095 Y22.4928 
G01 X7.5095 Y20.9412 
G01 X7.5292 Y20.8936 
G01 X7.5656 Y20.8572 
G01 X7.6132 Y20.8375 
G01 X8.3605 Y20.8375 
G01 X8.3605 Y17.5009 
G01 X8.3539 Y17.4911 
G01 X8.2867 Y17.3289 
G01 X8.2525 Y17.1566 
G01 X8.2525 Y15.4570 
G01 X8.2867 Y15.2847 
G01 X8.3539 Y15.1225 
G01 X8.3605 Y15.1127 
G01 X8.3605 Y10.0256 
G01 X8.2489 Y9.9794 
G01 X8.1205 Y9.8936 
G01 X8.0114 Y9.7845 
G01 X7.9256 Y9.6561 
G01 X7.8666 Y9.5136 
G01 X7.8365 Y9.3622 
G01 X7.8365 Y9.2078 
G01 X7.8666 Y9.0564 
G01 X7.9256 Y8.9139 
G01 X8.0114 Y8.7855 
G01 X8.1205 Y8.6764 
G01 X8.2489 Y8.5906 
G01 X8.3914 Y8.5316 
G01 X8.5428 Y8.5015 
G01 X8.6972 Y8.5015 
G01 X8.8486 Y8.5316 
G01 X8.9911 Y8.5906 
G01 X9.1195 Y8.6764 
G01 X9.2286 Y8.7855 
G01 X9.3144 Y8.9139 
G01 X9.3734 Y9.0564 
G01 X9.4035 Y9.2078 
G01 X9.4035 Y9.3622 
G01 X9.3999 Y9.3803 
G01 X9.4145 Y9.4243 
G01 X9.4155 Y9.4401 
G01 X9.4195 Y9.4553 
G01 X9.4195 Y9.5094 
G01 X9.4227 Y9.5635 
G01 X9.4195 Y9.5790 
G01 X9.4195 Y14.6939 
G01 X9.5663 Y14.7547 
G01 X9.7123 Y14.8523 
G01 X9.8365 Y14.9765 
G01 X9.9341 Y15.1225 
G01 X10.0013 Y15.2847 
G01 X10.0355 Y15.4570 
G00 Z0.5080 
G00 X10.4435 Y6.8222 
G01 Z-0.2540 F254.00 
G01 X10.4134 Y6.9736 
G01 X10.3544 Y7.1161 
G01 X10.2686 Y7.2445 
G01 X10.1595 Y7.3536 
G01 X10.0311 Y7.4394 
G01 X9.8886 Y7.4984 
G01 X9.7372 Y7.5285 
G01 X9.5828 Y7.5285 
G01 X9.4314 Y7.4984 
G01 X9.2889 Y7.4394 
G01 X9.1605 Y7.3536 
G01 X9.0514 Y7.2445 
G01 X8.9656 Y7.1161 
G01 X8.9066 Y6.9736 
G01 X8.8765 Y6.8222 
G01 X8.8765 Y6.6678 
G01 X8.9066 Y6.5164 
G01 X8.9656 Y6.3739 
G01 X9.0514 Y6.2455 
G01 X9.1605 Y6.1364 
G01 X9.2889 Y6.0506 
G01 X9.4314 Y5.9916 
G01 X9.5828 Y5.9615 
G01 X9.7372 Y5.9615 
G01 X9.7854 Y5.9711 
G01 X9.8075 Y5.9537 
G01 X11.1049 Y4.6563 
G01 X11.2256 Y4.5865 
G01 X11.3603 Y4.5505 
G01 X12.1347 Y4.5505 
G01 X12.2694 Y4.5865 
G01 X12.3901 Y4.6563 
G01 X12.4887 Y4.7549 
G01 X15.0287 Y7.2949 
G01 X15.0985 Y7.4156 
G01 X15.1345 Y7.5503 
G01 X15.1345 Y11.4997 
G01 X15.0985 Y11.6344 
G01 X15.0287 Y11.7551 
G01 X14.9301 Y11.8537 
G01 X13.2377 Y13.5462 
G01 X13.2349 Y13.5566 
G01 X13.1593 Y13.6875 
G01 X13.0525 Y13.7943 
G01 X12.9216 Y13.8699 
G01 X12.7756 Y13.9090 
G01 X12.6244 Y13.9090 
G01 X12.4784 Y13.8699 
G01 X12.3475 Y13.7943 
G01 X12.2407 Y13.6875 
G01 X12.1651 Y13.5566 
G01 X12.1260 Y13.4106 
G01 X12.1260 Y13.2594 
G01 X12.1651 Y13.1134 
G01 X12.2407 Y12.9825 
G01 X12.3475 Y12.8757 
G01 X12.4784 Y12.8001 
G01 X12.4888 Y12.7973 
G01 X14.0755 Y11.2107 
G01 X14.0755 Y7.8393 
G01 X11.8457 Y5.6095 
G01 X11.6493 Y5.6095 
G01 X10.5616 Y6.6972 
G01 X10.5430 Y6.7223 
G01 X10.5125 Y6.7463 
G01 X10.4851 Y6.7737 
G01 X10.4581 Y6.7894 
G01 X10.4435 Y6.8008 
G01 X10.4435 Y6.8222 
G00 Z0.5080 
G00 X11.4435 Y9.2078 
G01 Z-0.2540 F254.00 
G01 X11.4435 Y9.3622 
G01 X11.4134 Y9.5136 
G01 X11.3544 Y9.6561 
G01 X11.2686 Y9.7845 
G01 X11.1595 Y9.8936 
G01 X11.0311 Y9.9794 
G01 X10.8886 Y10.0384 
G01 X10.7372 Y10.0685 
G01 X10.5828 Y10.0685 
G01 X10.4895 Y10.0500 
G01 X10.4895 Y11.5924 
G01 X10.5125 Y11.6057 
G01 X10.6193 Y11.7125 
G01 X10.6949 Y11.8434 
G01 X10.7340 Y11.9894 
G01 X10.7340 Y12.1406 
G01 X10.6949 Y12.2866 
G01 X10.6193 Y12.4175 
G01 X10.5125 Y12.5243 
G01 X10.3816 Y12.5999 
G01 X10.2356 Y12.6390 
G01 X10.0844 Y12.6390 
G01 X9.9384 Y12.5999 
G01 X9.8075 Y12.5243 
G01 X9.7007 Y12.4175 
G01 X9.6251 Y12.2866 
G01 X9.5860 Y12.1406 
G01 X9.5860 Y11.9894 
G01 X9.6251 Y11.8434 
G01 X9.7007 Y11.7125 
G01 X9.8075 Y11.6057 
G01 X9.8305 Y11.5924 
G01 X9.8305 Y9.5557 
G01 X9.8281 Y9.5432 
G01 X9.8305 Y9.5125 
G01 X9.8305 Y9.4816 
G01 X9.8337 Y9.4694 
G01 X9.8347 Y9.4567 
G01 X9.8449 Y9.4276 
G01 X9.8529 Y9.3978 
G01 X9.8593 Y9.3868 
G01 X9.8635 Y9.3748 
G01 X9.8765 Y9.3558 
G01 X9.8765 Y9.2078 
G01 X9.9066 Y9.0564 
G01 X9.9656 Y8.9139 
G01 X10.0514 Y8.7855 
G01 X10.1605 Y8.6764 
G01 X10.2889 Y8.5906 
G01 X10.4314 Y8.5316 
G01 X10.5828 Y8.5015 
G01 X10.7372 Y8.5015 
G01 X10.8886 Y8.5316 
G01 X11.0311 Y8.5906 
G01 X11.1595 Y8.6764 
G01 X11.2686 Y8.7855 
G01 X11.3544 Y8.9139 
G01 X11.4134 Y9.0564 
G01 X11.4435 Y9.2078 
G00 Z0.5080 
G00 X12.4835 Y6.6678 
G01 Z-0.2540 F254.00 
G01 X12.4835 Y6.8222 
G01 X12.4534 Y6.9736 
G01 X12.3944 Y7.1161 
G01 X12.3086 Y7.2445 
G01 X12.1995 Y7.3536 
G01 X12.0711 Y7.4394 
G01 X11.9286 Y7.4984 
G01 X11.7772 Y7.5285 
G01 X11.6228 Y7.5285 
G01 X11.4714 Y7.4984 
G01 X11.3289 Y7.4394 
G01 X11.2005 Y7.3536 
G01 X11.0914 Y7.2445 
G01 X11.0056 Y7.1161 
G01 X10.9466 Y6.9736 
G01 X10.9165 Y6.8222 
G01 X10.9165 Y6.6678 
G01 X10.9466 Y6.5164 
G01 X11.0056 Y6.3739 
G01 X11.0914 Y6.2455 
G01 X11.2005 Y6.1364 
G01 X11.3289 Y6.0506 
G01 X11.4714 Y5.9916 
G01 X11.6228 Y5.9615 
G01 X11.7772 Y5.9615 
G01 X11.9286 Y5.9916 
G01 X12.0711 Y6.0506 
G01 X12.1995 Y6.1364 
G01 X12.3086 Y6.2455 
G01 X12.3944 Y6.3739 
G01 X12.4534 Y6.5164 
G01 X12.4835 Y6.6678 
G00 Z0.5080 
G00 X13.4835 Y9.2078 
G01 Z-0.2540 F254.00 
G01 X13.4835 Y9.3622 
G01 X13.4534 Y9.5136 
G01 X13.3944 Y9.6561 
G01 X13.3086 Y9.7845 
G01 X13.1995 Y9.8936 
G01 X13.0711 Y9.9794 
G01 X12.9286 Y10.0384 
G01 X12.7772 Y10.0685 
G01 X12.6228 Y10.0685 
G01 X12.4714 Y10.0384 
G01 X12.3289 Y9.9794 
G01 X12.2005 Y9.8936 
G01 X12.0914 Y9.7845 
G01 X12.0056 Y9.6561 
G01 X11.9466 Y9.5136 
G01 X11.9165 Y9.3622 
G01 X11.9165 Y9.2078 
G01 X11.9466 Y9.0564 
G01 X12.0056 Y8.9139 
G01 X12.0914 Y8.7855 
G01 X12.2005 Y8.6764 
G01 X12.3289 Y8.5906 
G01 X12.4714 Y8.5316 
G01 X12.6228 Y8.5015 
G01 X12.7772 Y8.5015 
G01 X12.9286 Y8.5316 
G01 X13.0711 Y8.5906 
G01 X13.1995 Y8.6764 
G01 X13.3086 Y8.7855 
G01 X13.3944 Y8.9139 
G01 X13.4534 Y9.0564 
G01 X13.4835 Y9.2078 
G00 Z0.5080 
G00 X26.1835 Y6.6678 
G01 Z-0.2540 F254.00 
G01 X26.1835 Y6.8222 
G01 X26.1534 Y6.9736 
G01 X26.0944 Y7.1161 
G01 X26.0086 Y7.2445 
G01 X25.8995 Y7.3536 
G01 X25.7711 Y7.4394 
G01 X25.6286 Y7.4984 
G01 X25.4772 Y7.5285 
G01 X25.3228 Y7.5285 
G01 X25.1714 Y7.4984 
G01 X25.0289 Y7.4394 
G01 X24.9005 Y7.3536 
G01 X24.7914 Y7.2445 
G01 X24.7056 Y7.1161 
G01 X24.6466 Y6.9736 
G01 X24.6165 Y6.8222 
G01 X24.6165 Y6.6678 
G01 X24.6466 Y6.5164 
G01 X24.7056 Y6.3739 
G01 X24.7914 Y6.2455 
G01 X24.8705 Y6.1664 
G01 X24.8705 Y1.7995 
G01 X11.6493 Y1.7995 
G01 X8.1495 Y5.2993 
G01 X8.1495 Y6.1664 
G01 X8.2286 Y6.2455 
G01 X8.3144 Y6.3739 
G01 X8.3734 Y6.5164 
G01 X8.4035 Y6.6678 
G01 X8.4035 Y6.8222 
G01 X8.3734 Y6.9736 
G01 X8.3144 Y7.1161 
G01 X8.2286 Y7.2445 
G01 X8.1195 Y7.3536 
G01 X7.9911 Y7.4394 
G01 X7.8486 Y7.4984 
G01 X7.6972 Y7.5285 
G01 X7.5428 Y7.5285 
G01 X7.3914 Y7.4984 
G01 X7.2489 Y7.4394 
G01 X7.1205 Y7.3536 
G01 X7.0114 Y7.2445 
G01 X6.9256 Y7.1161 
G01 X6.8666 Y6.9736 
G01 X6.8365 Y6.8222 
G01 X6.8365 Y6.6678 
G01 X6.8666 Y6.5164 
G01 X6.9256 Y6.3739 
G01 X7.0114 Y6.2455 
G01 X7.0905 Y6.1664 
G01 X7.0905 Y5.0103 
G01 X7.1265 Y4.8756 
G01 X7.1963 Y4.7549 
G01 X11.0063 Y0.9449 
G01 X11.1049 Y0.8463 
G01 X11.2256 Y0.7765 
G01 X11.3603 Y0.7405 
G01 X25.4697 Y0.7405 
G01 X25.6044 Y0.7765 
G01 X25.7251 Y0.8463 
G01 X25.8237 Y0.9449 
G01 X25.8935 Y1.0656 
G01 X25.9295 Y1.2003 
G01 X25.9295 Y6.1664 
G01 X26.0086 Y6.2455 
G01 X26.0944 Y6.3739 
G01 X26.1534 Y6.5164 
G01 X26.1835 Y6.6678 
G00 Z0.5080 
G00 X27.1835 Y9.2078 
G01 Z-0.2540 F254.00 
G01 X27.1835 Y9.3622 
G01 X27.1799 Y9.3803 
G01 X27.1945 Y9.4243 
G01 X27.1955 Y9.4401 
G01 X27.1995 Y9.4553 
G01 X27.1995 Y9.5094 
G01 X27.2027 Y9.5635 
G01 X27.1995 Y9.5790 
G01 X27.1995 Y11.8341 
G01 X27.2049 Y11.8434 
G01 X27.2440 Y11.9894 
G01 X27.2440 Y12.1406 
G01 X27.2049 Y12.2866 
G01 X27.1293 Y12.4175 
G01 X27.0225 Y12.5243 
G01 X26.8916 Y12.5999 
G01 X26.7456 Y12.6390 
G01 X26.5944 Y12.6390 
G01 X26.4484 Y12.5999 
G01 X26.3175 Y12.5243 
G01 X26.2107 Y12.4175 
G01 X26.1351 Y12.2866 
G01 X26.0960 Y12.1406 
G01 X26.0960 Y11.9894 
G01 X26.1351 Y11.8434 
G01 X26.1405 Y11.8341 
G01 X26.1405 Y10.0256 
G01 X26.0289 Y9.9794 
G01 X25.9005 Y9.8936 
G01 X25.7914 Y9.7845 
G01 X25.7056 Y9.6561 
G01 X25.6466 Y9.5136 
G01 X25.6165 Y9.3622 
G01 X25.6165 Y9.2078 
G01 X25.6466 Y9.0564 
G01 X25.7056 Y8.9139 
G01 X25.7914 Y8.7855 
G01 X25.9005 Y8.6764 
G01 X26.0289 Y8.5906 
G01 X26.1714 Y8.5316 
G01 X26.3228 Y8.5015 
G01 X26.4772 Y8.5015 
G01 X26.6286 Y8.5316 
G01 X26.7711 Y8.5906 
G01 X26.8995 Y8.6764 
G01 X27.0086 Y8.7855 
G01 X27.0944 Y8.9139 
G01 X27.1534 Y9.0564 
G01 X27.1835 Y9.2078 
G00 Z0.5080 
G00 X28.2235 Y6.6678 
G01 Z-0.2540 F254.00 
G01 X28.2235 Y6.8222 
G01 X28.1934 Y6.9736 
G01 X28.1344 Y7.1161 
G01 X28.0486 Y7.2445 
G01 X27.9395 Y7.3536 
G01 X27.8111 Y7.4394 
G01 X27.6685 Y7.4984 
G01 X27.5172 Y7.5285 
G01 X27.3628 Y7.5285 
G01 X27.2114 Y7.4984 
G01 X27.0689 Y7.4394 
G01 X26.9405 Y7.3536 
G01 X26.8314 Y7.2445 
G01 X26.7456 Y7.1161 
G01 X26.6866 Y6.9736 
G01 X26.6565 Y6.8222 
G01 X26.6565 Y6.6678 
G01 X26.6866 Y6.5164 
G01 X26.6971 Y6.4910 
G01 X26.3449 Y6.1387 
G01 X26.3449 Y6.1387 
G01 X26.2463 Y6.0401 
G01 X26.1765 Y5.9194 
G01 X26.1405 Y5.7847 
G01 X26.1405 Y2.1359 
G01 X26.1351 Y2.1266 
G01 X26.0960 Y1.9806 
G01 X26.0960 Y1.8294 
G01 X26.1351 Y1.6834 
G01 X26.2107 Y1.5525 
G01 X26.3175 Y1.4457 
G01 X26.4484 Y1.3701 
G01 X26.5944 Y1.3310 
G01 X26.7456 Y1.3310 
G01 X26.8916 Y1.3701 
G01 X27.0225 Y1.4457 
G01 X27.1293 Y1.5525 
G01 X27.2049 Y1.6834 
G01 X27.2440 Y1.8294 
G01 X27.2440 Y1.9806 
G01 X27.2049 Y2.1266 
G01 X27.1995 Y2.1359 
G01 X27.1995 Y5.4957 
G01 X27.6668 Y5.9629 
G01 X27.7058 Y5.9970 
G01 X27.7151 Y6.0109 
G01 X27.8111 Y6.0506 
G01 X27.9395 Y6.1364 
G01 X28.0486 Y6.2455 
G01 X28.1344 Y6.3739 
G01 X28.1934 Y6.5164 
G01 X28.2235 Y6.6678 
G00 Z0.5080 
G00 X29.2235 Y9.2078 
G01 Z-0.2540 F254.00 
G01 X29.2235 Y9.3622 
G01 X29.1934 Y9.5136 
G01 X29.1344 Y9.6561 
G01 X29.0486 Y9.7845 
G01 X28.9395 Y9.8936 
G01 X28.8111 Y9.9794 
G01 X28.6685 Y10.0384 
G01 X28.5172 Y10.0685 
G01 X28.3628 Y10.0685 
G01 X28.2114 Y10.0384 
G01 X28.0689 Y9.9794 
G01 X27.9405 Y9.8936 
G01 X27.8314 Y9.7845 
G01 X27.7456 Y9.6561 
G01 X27.6866 Y9.5136 
G01 X27.6565 Y9.3622 
G01 X27.6565 Y9.2078 
G01 X27.6866 Y9.0564 
G01 X27.7456 Y8.9139 
G01 X27.8314 Y8.7855 
G01 X27.9405 Y8.6764 
G01 X28.0689 Y8.5906 
G01 X28.2114 Y8.5316 
G01 X28.3628 Y8.5015 
G01 X28.5172 Y8.5015 
G01 X28.6685 Y8.5316 
G01 X28.8111 Y8.5906 
G01 X28.9395 Y8.6764 
G01 X29.0486 Y8.7855 
G01 X29.1344 Y8.9139 
G01 X29.1934 Y9.0564 
G01 X29.2235 Y9.2078 
G00 Z0.5080 
G00 X30.2635 Y6.6678 
G01 Z-0.2540 F254.00 
G01 X30.2635 Y6.8222 
G01 X30.2334 Y6.9736 
G01 X30.1744 Y7.1161 
G01 X30.0886 Y7.2445 
G01 X29.9795 Y7.3536 
G01 X29.8511 Y7.4394 
G01 X29.7086 Y7.4984 
G01 X29.5572 Y7.5285 
G01 X29.4028 Y7.5285 
G01 X29.2514 Y7.4984 
G01 X29.1089 Y7.4394 
G01 X28.9805 Y7.3536 
G01 X28.8714 Y7.2445 
G01 X28.7856 Y7.1161 
G01 X28.7266 Y6.9736 
G01 X28.6965 Y6.8222 
G01 X28.6965 Y6.6678 
G01 X28.7266 Y6.5164 
G01 X28.7856 Y6.3739 
G01 X28.8714 Y6.2455 
G01 X28.9805 Y6.1364 
G01 X29.1089 Y6.0506 
G01 X29.2514 Y5.9916 
G01 X29.4028 Y5.9615 
G01 X29.5572 Y5.9615 
G01 X29.7086 Y5.9916 
G01 X29.8511 Y6.0506 
G01 X29.9795 Y6.1364 
G01 X30.0886 Y6.2455 
G01 X30.1744 Y6.3739 
G01 X30.2334 Y6.5164 
G01 X30.2635 Y6.6678 
G00 Z0.5080 
G00 X31.2635 Y9.2078 
G01 Z-0.2540 F254.00 
G01 X31.2635 Y9.3622 
G01 X31.2334 Y9.5136 
G01 X31.1744 Y9.6561 
G01 X31.0886 Y9.7845 
G01 X31.0095 Y9.8636 
G01 X31.0095 Y13.4047 
G01 X30.9735 Y13.5394 
G01 X30.9037 Y13.6601 
G01 X30.8051 Y13.7587 
G01 X30.6844 Y13.8285 
G01 X30.5497 Y13.8645 
G01 X25.9653 Y13.8645 
G01 X25.8306 Y13.8285 
G01 X25.7099 Y13.7587 
G01 X25.6113 Y13.6601 
G01 X24.9763 Y13.0251 
G01 X24.9065 Y12.9044 
G01 X24.8705 Y12.7697 
G01 X24.8705 Y11.0143 
G01 X22.6488 Y8.7927 
G01 X22.6384 Y8.7899 
G01 X22.5075 Y8.7143 
G01 X22.4007 Y8.6075 
G01 X22.3251 Y8.4766 
G01 X22.2860 Y8.3306 
G01 X22.2860 Y8.1794 
G01 X22.3251 Y8.0334 
G01 X22.4007 Y7.9025 
G01 X22.5075 Y7.7957 
G01 X22.6384 Y7.7201 
G01 X22.7844 Y7.6810 
G01 X22.9356 Y7.6810 
G01 X23.0816 Y7.7201 
G01 X23.2125 Y7.7957 
G01 X23.3193 Y7.9025 
G01 X23.3949 Y8.0334 
G01 X23.3977 Y8.0438 
G01 X25.7251 Y10.3713 
G01 X25.8237 Y10.4699 
G01 X25.8935 Y10.5906 
G01 X25.9295 Y10.7253 
G01 X25.9295 Y12.4807 
G01 X26.2543 Y12.8055 
G01 X29.9505 Y12.8055 
G01 X29.9505 Y9.8636 
G01 X29.8714 Y9.7845 
G01 X29.7856 Y9.6561 
G01 X29.7266 Y9.5136 
G01 X29.6965 Y9.3622 
G01 X29.6965 Y9.2078 
G01 X29.7266 Y9.0564 
G01 X29.7856 Y8.9139 
G01 X29.8714 Y8.7855 
G01 X29.9805 Y8.6764 
G01 X30.1089 Y8.5906 
G01 X30.2514 Y8.5316 
G01 X30.4028 Y8.5015 
G01 X30.5572 Y8.5015 
G01 X30.7086 Y8.5316 
G01 X30.8511 Y8.5906 
G01 X30.9795 Y8.6764 
G01 X31.0886 Y8.7855 
G01 X31.1744 Y8.9139 
G01 X31.2334 Y9.0564 
G01 X31.2635 Y9.2078 
G00 Z0.5080 
G00 X47.8815 Y6.7702 
G01 Z-0.2540 F254.00 
G01 X47.8815 Y8.4698 
G01 X47.8473 Y8.6421 
G01 X47.7801 Y8.8043 
G01 X47.6825 Y8.9503 
G01 X47.5583 Y9.0745 
G01 X47.4123 Y9.1721 
G01 X47.2501 Y9.2393 
G01 X47.0778 Y9.2735 
G01 X46.9022 Y9.2735 
G01 X46.7299 Y9.2393 
G01 X46.5677 Y9.1721 
G01 X46.4217 Y9.0745 
G01 X46.2975 Y8.9503 
G01 X46.1999 Y8.8043 
G01 X46.1327 Y8.6421 
G01 X46.0985 Y8.4698 
G01 X46.0985 Y6.7702 
G01 X46.1327 Y6.5979 
G01 X46.1999 Y6.4357 
G01 X46.2975 Y6.2897 
G01 X46.4217 Y6.1655 
G01 X46.5677 Y6.0679 
G01 X46.7299 Y6.0007 
G01 X46.9022 Y5.9665 
G01 X47.0778 Y5.9665 
G01 X47.2501 Y6.0007 
G01 X47.4123 Y6.0679 
G01 X47.5583 Y6.1655 
G01 X47.6825 Y6.2897 
G01 X47.7801 Y6.4357 
G01 X47.8473 Y6.5979 
G01 X47.8815 Y6.7702 
G00 Z0.5080 
G00 X42.7598 Y11.0515 
G01 Z-0.2540 F254.00 
G01 X42.4395 Y11.0515 
G01 X42.4395 Y14.6939 
G01 X42.5863 Y14.7547 
G01 X42.7323 Y14.8523 
G01 X42.8565 Y14.9765 
G01 X42.9541 Y15.1225 
G01 X43.0213 Y15.2847 
G01 X43.0555 Y15.4570 
G01 X43.0555 Y17.1566 
G01 X43.0213 Y17.3289 
G01 X42.9541 Y17.4911 
G01 X42.8565 Y17.6371 
G01 X42.7323 Y17.7613 
G01 X42.5863 Y17.8589 
G01 X42.4241 Y17.9261 
G01 X42.2518 Y17.9603 
G01 X42.0762 Y17.9603 
G01 X41.9039 Y17.9261 
G01 X41.8855 Y17.9184 
G01 X37.9945 Y21.8093 
G01 X37.9945 Y28.9907 
G01 X39.1587 Y30.1549 
G01 X39.2285 Y30.2756 
G01 X39.2645 Y30.4103 
G01 X39.2645 Y37.5705 
G01 X39.5105 Y37.5705 
G01 X39.5105 Y37.4042 
G01 X39.5302 Y37.3566 
G01 X39.5666 Y37.3202 
G01 X39.6142 Y37.3005 
G01 X41.6658 Y37.3005 
G01 X41.7134 Y37.3202 
G01 X41.7498 Y37.3566 
G01 X41.7695 Y37.4042 
G01 X41.7695 Y39.0558 
G01 X41.7498 Y39.1034 
G01 X41.7134 Y39.1398 
G01 X41.6658 Y39.1595 
G01 X39.6142 Y39.1595 
G01 X39.5666 Y39.1398 
G01 X39.5302 Y39.1034 
G01 X39.5105 Y39.0558 
G01 X39.5105 Y38.6295 
G01 X37.9595 Y38.6295 
G01 X37.9595 Y39.0558 
G01 X37.9398 Y39.1034 
G01 X37.9034 Y39.1398 
G01 X37.8558 Y39.1595 
G01 X35.8042 Y39.1595 
G01 X35.7566 Y39.1398 
G01 X35.7202 Y39.1034 
G01 X35.7005 Y39.0558 
G01 X35.7005 Y37.4042 
G01 X35.7202 Y37.3566 
G01 X35.7566 Y37.3202 
G01 X35.8042 Y37.3005 
G01 X37.8558 Y37.3005 
G01 X37.9034 Y37.3202 
G01 X37.9398 Y37.3566 
G01 X37.9595 Y37.4042 
G01 X37.9595 Y37.5705 
G01 X38.2055 Y37.5705 
G01 X38.2055 Y30.6993 
G01 X37.1399 Y29.6337 
G01 X37.0413 Y29.5351 
G01 X36.9715 Y29.4144 
G01 X36.9355 Y29.2797 
G01 X36.9355 Y22.8684 
G01 X36.6187 Y23.1851 
G01 X36.6187 Y23.1851 
G01 X36.5201 Y23.2837 
G01 X36.4769 Y23.3087 
G01 X36.4769 Y23.5982 
G01 X36.4466 Y23.7508 
G01 X36.3870 Y23.8946 
G01 X36.3006 Y24.0240 
G01 X36.1906 Y24.1340 
G01 X36.0612 Y24.2204 
G01 X35.9174 Y24.2800 
G01 X35.7648 Y24.3103 
G01 X35.6092 Y24.3103 
G01 X35.4566 Y24.2800 
G01 X35.3128 Y24.2204 
G01 X35.1834 Y24.1340 
G01 X35.0734 Y24.0240 
G01 X34.9870 Y23.8946 
G01 X34.9274 Y23.7508 
G01 X34.8971 Y23.5982 
G01 X34.8971 Y22.1218 
G01 X34.9274 Y21.9692 
G01 X34.9870 Y21.8254 
G01 X35.0734 Y21.6960 
G01 X35.1834 Y21.5860 
G01 X35.3128 Y21.4996 
G01 X35.4566 Y21.4400 
G01 X35.6092 Y21.4097 
G01 X35.7648 Y21.4097 
G01 X35.9174 Y21.4400 
G01 X36.0612 Y21.4996 
G01 X36.1906 Y21.5860 
G01 X36.3006 Y21.6960 
G01 X36.3870 Y21.8254 
G01 X36.4145 Y21.8917 
G01 X37.0413 Y21.2649 
G01 X37.0413 Y21.2649 
G01 X37.1399 Y21.1663 
G01 X37.1399 Y21.1663 
G01 X41.2725 Y17.0337 
G01 X41.2725 Y15.4570 
G01 X41.3067 Y15.2847 
G01 X41.3739 Y15.1225 
G01 X41.3805 Y15.1127 
G01 X41.3805 Y11.0515 
G01 X41.0602 Y11.0515 
G01 X40.8879 Y11.0173 
G01 X40.7257 Y10.9501 
G01 X40.5797 Y10.8525 
G01 X40.4555 Y10.7283 
G01 X40.3579 Y10.5823 
G01 X40.2907 Y10.4201 
G01 X40.2565 Y10.2478 
G01 X40.2565 Y10.0722 
G01 X40.2907 Y9.8999 
G01 X40.3579 Y9.7377 
G01 X40.4555 Y9.5917 
G01 X40.5797 Y9.4675 
G01 X40.7257 Y9.3699 
G01 X40.8879 Y9.3027 
G01 X41.0602 Y9.2685 
G01 X42.7598 Y9.2685 
G01 X42.9321 Y9.3027 
G01 X43.0943 Y9.3699 
G01 X43.2403 Y9.4675 
G01 X43.3645 Y9.5917 
G01 X43.4621 Y9.7377 
G01 X43.5293 Y9.8999 
G01 X43.5635 Y10.0722 
G01 X43.5635 Y10.2478 
G01 X43.5293 Y10.4201 
G01 X43.4621 Y10.5823 
G01 X43.3645 Y10.7283 
G01 X43.2403 Y10.8525 
G01 X43.0943 Y10.9501 
G01 X42.9321 Y11.0173 
G01 X42.7598 Y11.0515 
G00 Z0.5080 
G00 X6.5560 Y40.2535 
G01 Z-0.2540 F254.00 
G01 X4.8740 Y40.2535 
G01 X4.7033 Y40.2196 
G01 X4.5425 Y40.1530 
G01 X4.3978 Y40.0563 
G01 X4.2747 Y39.9332 
G01 X4.1780 Y39.7885 
G01 X4.1114 Y39.6277 
G01 X4.0775 Y39.4570 
G01 X4.0775 Y39.2830 
G01 X4.1114 Y39.1123 
G01 X4.1780 Y38.9515 
G01 X4.2747 Y38.8068 
G01 X4.3978 Y38.6837 
G01 X4.5425 Y38.5870 
G01 X4.7033 Y38.5204 
G01 X4.8740 Y38.4865 
G01 X6.5560 Y38.4865 
G01 X6.7267 Y38.5204 
G01 X6.8875 Y38.5870 
G01 X7.0322 Y38.6837 
G01 X7.1553 Y38.8068 
G01 X7.2520 Y38.9515 
G01 X7.3186 Y39.1123 
G01 X7.3525 Y39.2830 
G01 X7.3525 Y39.4570 
G01 X7.3186 Y39.6277 
G01 X7.2520 Y39.7885 
G01 X7.1553 Y39.9332 
G01 X7.0322 Y40.0563 
G01 X6.8875 Y40.1530 
G01 X6.7267 Y40.2196 
G01 X6.5560 Y40.2535 
G00 Z0.5080 
G00 X4.8740 Y35.1735 
G01 Z-0.2540 F254.00 
G01 X4.7033 Y35.1396 
G01 X4.5425 Y35.0730 
G01 X4.3978 Y34.9763 
G01 X4.2747 Y34.8532 
G01 X4.1780 Y34.7085 
G01 X4.1114 Y34.5477 
G01 X4.0775 Y34.3770 
G01 X4.0775 Y34.2030 
G01 X4.1114 Y34.0323 
G01 X4.1780 Y33.8715 
G01 X4.2747 Y33.7268 
G01 X4.3978 Y33.6037 
G01 X4.5425 Y33.5070 
G01 X4.7033 Y33.4404 
G01 X4.8740 Y33.4065 
G01 X6.5560 Y33.4065 
G01 X6.7267 Y33.4404 
G01 X6.8875 Y33.5070 
G01 X7.0322 Y33.6037 
G01 X7.1553 Y33.7268 
G01 X7.2520 Y33.8715 
G01 X7.3186 Y34.0323 
G01 X7.3525 Y34.2030 
G01 X7.3525 Y34.3770 
G01 X7.3249 Y34.5160 
G01 X7.4087 Y34.5999 
G01 X8.6787 Y35.8699 
G01 X8.7485 Y35.9906 
G01 X8.7845 Y36.1253 
G01 X8.7845 Y41.3805 
G01 X22.0057 Y41.3805 
G01 X24.3975 Y38.9887 
G01 X24.3975 Y37.4042 
G01 X24.4172 Y37.3566 
G01 X24.4536 Y37.3202 
G01 X24.5012 Y37.3005 
G01 X26.5528 Y37.3005 
G01 X26.6004 Y37.3202 
G01 X26.6368 Y37.3566 
G01 X26.6565 Y37.4042 
G01 X26.6565 Y37.5705 
G01 X28.0805 Y37.5705 
G01 X28.0805 Y37.4042 
G01 X28.1002 Y37.3566 
G01 X28.1366 Y37.3202 
G01 X28.1842 Y37.3005 
G01 X30.2358 Y37.3005 
G01 X30.2834 Y37.3202 
G01 X30.3198 Y37.3566 
G01 X30.3395 Y37.4042 
G01 X30.3395 Y37.5705 
G01 X31.8905 Y37.5705 
G01 X31.8905 Y37.4042 
G01 X31.9102 Y37.3566 
G01 X31.9466 Y37.3202 
G01 X31.9942 Y37.3005 
G01 X34.0458 Y37.3005 
G01 X34.0934 Y37.3202 
G01 X34.1298 Y37.3566 
G01 X34.1495 Y37.4042 
G01 X34.1495 Y39.0558 
G01 X34.1298 Y39.1034 
G01 X34.0934 Y39.1398 
G01 X34.0458 Y39.1595 
G01 X31.9942 Y39.1595 
G01 X31.9466 Y39.1398 
G01 X31.9102 Y39.1034 
G01 X31.8905 Y39.0558 
G01 X31.8905 Y38.6295 
G01 X30.3395 Y38.6295 
G01 X30.3395 Y39.0558 
G01 X30.3198 Y39.1034 
G01 X30.2834 Y39.1398 
G01 X30.2358 Y39.1595 
G01 X28.1842 Y39.1595 
G01 X28.1366 Y39.1398 
G01 X28.1002 Y39.1034 
G01 X28.0805 Y39.0558 
G01 X28.0805 Y38.6295 
G01 X26.6565 Y38.6295 
G01 X26.6565 Y39.0558 
G01 X26.6368 Y39.1034 
G01 X26.6004 Y39.1398 
G01 X26.5528 Y39.1595 
G01 X25.7243 Y39.1595 
G01 X22.6487 Y42.2351 
G01 X22.5501 Y42.3337 
G01 X22.4294 Y42.4034 
G01 X22.2947 Y42.4395 
G01 X8.1853 Y42.4395 
G01 X8.0506 Y42.4034 
G01 X7.9299 Y42.3337 
G01 X7.8313 Y42.2351 
G01 X7.7615 Y42.1144 
G01 X7.7255 Y41.9797 
G01 X7.7255 Y36.4143 
G01 X6.7657 Y35.4545 
G01 X5.6453 Y35.4545 
G01 X5.5106 Y35.4184 
G01 X5.3899 Y35.3487 
G01 X5.2913 Y35.2501 
G01 X5.2470 Y35.1735 
G01 X4.8740 Y35.1735 
G00 Z0.5080 
G00 X2.2105 Y20.9984 
G01 Z-0.2540 F254.00 
G01 X2.2105 Y20.9116 
G01 X2.2329 Y20.8278 
G01 X2.2763 Y20.7527 
G01 X5.7390 Y17.2900 
G01 X5.7125 Y17.1566 
G01 X5.7125 Y15.4570 
G01 X5.7467 Y15.2847 
G01 X5.8139 Y15.1225 
G01 X5.9115 Y14.9765 
G01 X6.0357 Y14.8523 
G01 X6.1817 Y14.7547 
G01 X6.3439 Y14.6875 
G01 X6.5162 Y14.6533 
G01 X6.6918 Y14.6533 
G01 X6.8641 Y14.6875 
G01 X7.0263 Y14.7547 
G01 X7.1723 Y14.8523 
G01 X7.2965 Y14.9765 
G01 X7.3941 Y15.1225 
G01 X7.4613 Y15.2847 
G01 X7.4955 Y15.4570 
G01 X7.4955 Y17.1566 
G01 X7.4613 Y17.3289 
G01 X7.3941 Y17.4911 
G01 X7.2965 Y17.6371 
G01 X7.1723 Y17.7613 
G01 X7.0263 Y17.8589 
G01 X6.8641 Y17.9261 
G01 X6.6918 Y17.9603 
G01 X6.5162 Y17.9603 
G01 X6.3439 Y17.9261 
G01 X6.1817 Y17.8589 
G01 X6.1340 Y17.8270 
G01 X2.8695 Y21.0915 
G01 X2.8695 Y30.0074 
G01 X2.8925 Y30.0207 
G01 X2.9993 Y30.1275 
G01 X3.0749 Y30.2584 
G01 X3.1140 Y30.4044 
G01 X3.1140 Y30.5556 
G01 X3.0749 Y30.7016 
G01 X2.9993 Y30.8325 
G01 X2.8925 Y30.9393 
G01 X2.7616 Y31.0149 
G01 X2.6156 Y31.0540 
G01 X2.4644 Y31.0540 
G01 X2.3184 Y31.0149 
G01 X2.1875 Y30.9393 
G01 X2.0807 Y30.8325 
G01 X2.0051 Y30.7016 
G01 X1.9660 Y30.5556 
G01 X1.9660 Y30.4044 
G01 X2.0051 Y30.2584 
G01 X2.0807 Y30.1275 
G01 X2.1875 Y30.0207 
G01 X2.2105 Y30.0074 
G01 X2.2105 Y20.9984 
G00 Z0.5080 
G00 X26.0565 Y12.4087 
G01 Z-0.2540 F254.00 
G01 X26.0565 Y12.4281 
G01 X26.0955 Y12.4670 
G01 X26.0565 Y12.4087 
G00 Z0.5080 
G00 X26.2680 Y12.6395 
G01 Z-0.2540 F254.00 
G01 X26.3069 Y12.6785 
G01 X26.3263 Y12.6785 
G01 X26.2680 Y12.6395 
G00 Z0.5080 
G00 X11.6103 Y5.8345 
G01 Z-0.2540 F254.00 
G01 X11.7897 Y5.8345 
G01 X11.9161 Y5.8596 
G01 X11.7931 Y5.7365 
G01 X11.7019 Y5.7365 
G01 X11.6025 Y5.8360 
G01 X11.6103 Y5.8345 
G00 Z0.5080 
G00 X22.0154 Y20.1438 
G01 Z-0.2540 F254.00 
G01 X22.0465 Y20.2599 
G01 X22.0465 Y24.5759 
G01 X22.4141 Y24.9435 
G01 X23.6735 Y24.9435 
G01 X23.6735 Y24.1307 
G01 X23.5715 Y24.2326 
G01 X23.4213 Y24.3330 
G01 X23.2545 Y24.4021 
G01 X23.0773 Y24.4373 
G01 X22.8967 Y24.4373 
G01 X22.7195 Y24.4021 
G01 X22.5527 Y24.3330 
G01 X22.4025 Y24.2326 
G01 X22.2748 Y24.1049 
G01 X22.1744 Y23.9547 
G01 X22.1053 Y23.7879 
G01 X22.0701 Y23.6107 
G01 X22.0701 Y22.1093 
G01 X22.1053 Y21.9321 
G01 X22.1744 Y21.7653 
G01 X22.2748 Y21.6151 
G01 X22.4025 Y21.4874 
G01 X22.4035 Y21.4867 
G01 X22.4035 Y20.5091 
G01 X21.9844 Y20.0900 
G01 X22.0154 Y20.1438 
G00 Z0.5080 
G00 X42.5665 Y28.8469 
G01 Z-0.2540 F254.00 
G01 X42.5665 Y28.8663 
G01 X42.6055 Y28.8080 
G01 X42.5665 Y28.8469 
G00 Z0.5080 
G00 X33.8646 Y32.5612 
G01 Z-0.2540 F254.00 
G01 X33.8335 Y32.4451 
G01 X33.8335 Y31.7507 
G01 X33.7315 Y31.8526 
G01 X33.5813 Y31.9530 
G01 X33.4765 Y31.9964 
G01 X33.4765 Y32.1959 
G01 X33.8956 Y32.6150 
G01 X33.8646 Y32.5612 
G00 Z0.5080 
G00 X35.5735 Y35.1035 
G01 Z-0.2540 F254.00 
G01 X35.5735 Y34.5962 
G01 X35.5909 Y34.5310 
G01 X35.6247 Y34.4725 
G01 X35.6725 Y34.4247 
G01 X35.7310 Y34.3909 
G01 X35.7962 Y34.3735 
G01 X37.8638 Y34.3735 
G01 X37.9290 Y34.3909 
G01 X37.9875 Y34.4247 
G01 X38.0353 Y34.4725 
G01 X38.0691 Y34.5310 
G01 X38.0785 Y34.5661 
G01 X38.0785 Y33.9987 
G01 X38.0095 Y34.1019 
G01 X37.9119 Y34.1995 
G01 X37.7971 Y34.2763 
G01 X37.6695 Y34.3291 
G01 X37.5340 Y34.3560 
G01 X37.3959 Y34.3560 
G01 X37.2605 Y34.3291 
G01 X37.1329 Y34.2763 
G01 X37.0181 Y34.1995 
G01 X36.9301 Y34.1115 
G01 X35.4999 Y34.1115 
G01 X35.3838 Y34.0804 
G01 X35.3049 Y34.0349 
G01 X35.3504 Y34.1138 
G01 X35.3815 Y34.2299 
G01 X35.3815 Y35.1035 
G01 X35.5735 Y35.1035 
G00 Z0.5080 
G00 X13.9915 Y32.6569 
G01 Z-0.2540 F254.00 
G01 X13.9915 Y32.6763 
G01 X14.0305 Y32.6180 
G01 X13.9915 Y32.6569 
G00 Z0.5080 
G00 X21.0315 Y24.2326 
G01 Z-0.2540 F254.00 
G01 X20.8813 Y24.3330 
G01 X20.7765 Y24.3764 
G01 X20.7765 Y24.5759 
G01 X21.1956 Y24.9950 
G01 X21.1646 Y24.9412 
G01 X21.1335 Y24.8251 
G01 X21.1335 Y24.1307 
G01 X21.0315 Y24.2326 
G00 Z0.5080 
G00 X1.7265 Y33.4659 
G01 Z-0.2540 F254.00 
G01 X4.3113 Y36.0506 
G01 X4.3168 Y36.0451 
G01 X4.4823 Y35.9345 
G01 X4.6662 Y35.8583 
G01 X4.8615 Y35.8195 
G01 X6.5685 Y35.8195 
G01 X6.7638 Y35.8583 
G01 X6.9477 Y35.9345 
G01 X7.1132 Y36.0451 
G01 X7.2539 Y36.1858 
G01 X7.3645 Y36.3513 
G01 X7.4407 Y36.5352 
G01 X7.4795 Y36.7305 
G01 X7.4795 Y36.9295 
G01 X7.4407 Y37.1248 
G01 X7.3645 Y37.3087 
G01 X7.2539 Y37.4742 
G01 X7.1132 Y37.6149 
G01 X6.9477 Y37.7255 
G01 X6.7638 Y37.8017 
G01 X6.5685 Y37.8405 
G01 X4.8615 Y37.8405 
G01 X4.6662 Y37.8017 
G01 X4.4823 Y37.7255 
G01 X4.3168 Y37.6149 
G01 X4.1761 Y37.4742 
G01 X4.0655 Y37.3087 
G01 X3.9893 Y37.1248 
G01 X3.9633 Y36.9939 
G01 X0.9047 Y33.9353 
G01 X0.8446 Y33.8312 
G01 X0.8135 Y33.7151 
G01 X0.8135 Y12.5999 
G01 X0.7255 Y12.5119 
G01 X0.6487 Y12.3971 
G01 X0.5959 Y12.2695 
G01 X0.5690 Y12.1340 
G01 X0.5690 Y11.9960 
G01 X0.5959 Y11.8605 
G01 X0.6487 Y11.7329 
G01 X0.7255 Y11.6181 
G01 X0.8231 Y11.5205 
G01 X0.9379 Y11.4437 
G01 X1.0655 Y11.3909 
G01 X1.2009 Y11.3640 
G01 X1.3390 Y11.3640 
G01 X1.4745 Y11.3909 
G01 X1.6021 Y11.4437 
G01 X1.7169 Y11.5205 
G01 X1.8145 Y11.6181 
G01 X1.8913 Y11.7329 
G01 X1.9441 Y11.8605 
G01 X1.9710 Y11.9960 
G01 X1.9710 Y12.1340 
G01 X1.9441 Y12.2695 
G01 X1.8913 Y12.3971 
G01 X1.8145 Y12.5119 
G01 X1.7265 Y12.5999 
G01 X1.7265 Y33.4659 
G00 Z0.5080 
G00 X24.4932 Y34.3735 
G01 Z-0.2540 F254.00 
G01 X24.9435 Y34.3735 
G01 X24.9435 Y31.8533 
G01 X24.9425 Y31.8526 
G01 X24.8148 Y31.7249 
G01 X24.7144 Y31.5747 
G01 X24.6453 Y31.4079 
G01 X24.6101 Y31.2307 
G01 X24.6101 Y29.7293 
G01 X24.6453 Y29.5521 
G01 X24.7144 Y29.3853 
G01 X24.8148 Y29.2351 
G01 X24.9425 Y29.1074 
G01 X25.0927 Y29.0070 
G01 X25.2595 Y28.9379 
G01 X25.4367 Y28.9027 
G01 X25.6173 Y28.9027 
G01 X25.7945 Y28.9379 
G01 X25.9613 Y29.0070 
G01 X26.1115 Y29.1074 
G01 X26.2392 Y29.2351 
G01 X26.3396 Y29.3853 
G01 X26.4087 Y29.5521 
G01 X26.4439 Y29.7293 
G01 X26.4439 Y31.2307 
G01 X26.4087 Y31.4079 
G01 X26.3396 Y31.5747 
G01 X26.2392 Y31.7249 
G01 X26.1115 Y31.8526 
G01 X25.9613 Y31.9530 
G01 X25.8565 Y31.9964 
G01 X25.8565 Y34.3735 
G01 X26.5608 Y34.3735 
G01 X26.6260 Y34.3909 
G01 X26.6845 Y34.4247 
G01 X26.7323 Y34.4725 
G01 X26.7661 Y34.5310 
G01 X26.7835 Y34.5962 
G01 X26.7835 Y36.2638 
G01 X26.7661 Y36.3290 
G01 X26.7323 Y36.3875 
G01 X26.6845 Y36.4353 
G01 X26.6260 Y36.4691 
G01 X26.5608 Y36.4865 
G01 X24.4932 Y36.4865 
G01 X24.4280 Y36.4691 
G01 X24.3695 Y36.4353 
G01 X24.3217 Y36.3875 
G01 X24.2879 Y36.3290 
G01 X24.2705 Y36.2638 
G01 X24.2705 Y34.5962 
G01 X24.2879 Y34.5310 
G01 X24.3217 Y34.4725 
G01 X24.3695 Y34.4247 
G01 X24.4280 Y34.3909 
G01 X24.4932 Y34.3735 
G00 Z0.5080 
G00 X30.2438 Y34.3735 
G01 Z-0.2540 F254.00 
G01 X30.3090 Y34.3909 
G01 X30.3675 Y34.4247 
G01 X30.4153 Y34.4725 
G01 X30.4491 Y34.5310 
G01 X30.4665 Y34.5962 
G01 X30.4665 Y36.2638 
G01 X30.4491 Y36.3290 
G01 X30.4153 Y36.3875 
G01 X30.3675 Y36.4353 
G01 X30.3090 Y36.4691 
G01 X30.2438 Y36.4865 
G01 X28.1762 Y36.4865 
G01 X28.1110 Y36.4691 
G01 X28.0525 Y36.4353 
G01 X28.0047 Y36.3875 
G01 X27.9709 Y36.3290 
G01 X27.9535 Y36.2638 
G01 X27.9535 Y34.5962 
G01 X27.9709 Y34.5310 
G01 X28.0047 Y34.4725 
G01 X28.0525 Y34.4247 
G01 X28.1110 Y34.3909 
G01 X28.1282 Y34.3863 
G01 X28.1185 Y34.3501 
G01 X28.1185 Y33.2091 
G01 X27.6597 Y32.7503 
G01 X27.5747 Y32.6653 
G01 X27.5146 Y32.5612 
G01 X27.4835 Y32.4451 
G01 X27.4835 Y31.8533 
G01 X27.4825 Y31.8526 
G01 X27.3548 Y31.7249 
G01 X27.2544 Y31.5747 
G01 X27.1853 Y31.4079 
G01 X27.1501 Y31.2307 
G01 X27.1501 Y29.7293 
G01 X27.1853 Y29.5521 
G01 X27.2544 Y29.3853 
G01 X27.3548 Y29.2351 
G01 X27.4825 Y29.1074 
G01 X27.6327 Y29.0070 
G01 X27.7995 Y28.9379 
G01 X27.9767 Y28.9027 
G01 X28.1573 Y28.9027 
G01 X28.3345 Y28.9379 
G01 X28.5013 Y29.0070 
G01 X28.6515 Y29.1074 
G01 X28.7792 Y29.2351 
G01 X28.8796 Y29.3853 
G01 X28.9487 Y29.5521 
G01 X28.9839 Y29.7293 
G01 X28.9839 Y31.2307 
G01 X28.9487 Y31.4079 
G01 X28.8796 Y31.5747 
G01 X28.7792 Y31.7249 
G01 X28.6515 Y31.8526 
G01 X28.5013 Y31.9530 
G01 X28.3965 Y31.9964 
G01 X28.3965 Y32.1959 
G01 X28.9403 Y32.7397 
G01 X29.0004 Y32.8438 
G01 X29.0315 Y32.9599 
G01 X29.0315 Y34.1009 
G01 X29.3041 Y34.3735 
G01 X30.2438 Y34.3735 
G00 Z0.5080 
G00 X34.0639 Y22.1093 
G01 Z-0.2540 F254.00 
G01 X34.0639 Y23.6107 
G01 X34.0287 Y23.7879 
G01 X33.9596 Y23.9547 
G01 X33.8592 Y24.1049 
G01 X33.7315 Y24.2326 
G01 X33.5813 Y24.3330 
G01 X33.4145 Y24.4021 
G01 X33.2373 Y24.4373 
G01 X33.0567 Y24.4373 
G01 X32.8795 Y24.4021 
G01 X32.7127 Y24.3330 
G01 X32.5625 Y24.2326 
G01 X32.4348 Y24.1049 
G01 X32.3344 Y23.9547 
G01 X32.2653 Y23.7879 
G01 X32.2301 Y23.6107 
G01 X32.2301 Y22.1093 
G01 X32.2653 Y21.9321 
G01 X32.3344 Y21.7653 
G01 X32.4348 Y21.6151 
G01 X32.5625 Y21.4874 
G01 X32.7127 Y21.3870 
G01 X32.8795 Y21.3179 
G01 X33.0567 Y21.2827 
G01 X33.2373 Y21.2827 
G01 X33.4145 Y21.3179 
G01 X33.5813 Y21.3870 
G01 X33.7315 Y21.4874 
G01 X33.8592 Y21.6151 
G01 X33.9596 Y21.7653 
G01 X34.0287 Y21.9321 
G01 X34.0639 Y22.1093 
G00 Z0.5080 
G00 X31.5239 Y22.1093 
G01 Z-0.2540 F254.00 
G01 X31.5239 Y23.6107 
G01 X31.4887 Y23.7879 
G01 X31.4196 Y23.9547 
G01 X31.3192 Y24.1049 
G01 X31.1915 Y24.2326 
G01 X31.0413 Y24.3330 
G01 X30.8745 Y24.4021 
G01 X30.6973 Y24.4373 
G01 X30.5167 Y24.4373 
G01 X30.3395 Y24.4021 
G01 X30.1727 Y24.3330 
G01 X30.0225 Y24.2326 
G01 X29.8948 Y24.1049 
G01 X29.7944 Y23.9547 
G01 X29.7253 Y23.7879 
G01 X29.6901 Y23.6107 
G01 X29.6901 Y22.1093 
G01 X29.7253 Y21.9321 
G01 X29.7944 Y21.7653 
G01 X29.8948 Y21.6151 
G01 X30.0225 Y21.4874 
G01 X30.1727 Y21.3870 
G01 X30.3395 Y21.3179 
G01 X30.5167 Y21.2827 
G01 X30.6973 Y21.2827 
G01 X30.8745 Y21.3179 
G01 X31.0413 Y21.3870 
G01 X31.1915 Y21.4874 
G01 X31.3192 Y21.6151 
G01 X31.4196 Y21.7653 
G01 X31.4887 Y21.9321 
G01 X31.5239 Y22.1093 
G00 Z0.5080 
G00 X26.4439 Y22.1093 
G01 Z-0.2540 F254.00 
G01 X26.4439 Y23.6107 
G01 X26.4087 Y23.7879 
G01 X26.3396 Y23.9547 
G01 X26.2392 Y24.1049 
G01 X26.1115 Y24.2326 
G01 X25.9613 Y24.3330 
G01 X25.7945 Y24.4021 
G01 X25.6173 Y24.4373 
G01 X25.4367 Y24.4373 
G01 X25.2595 Y24.4021 
G01 X25.0927 Y24.3330 
G01 X24.9425 Y24.2326 
G01 X24.8148 Y24.1049 
G01 X24.7144 Y23.9547 
G01 X24.6453 Y23.7879 
G01 X24.6101 Y23.6107 
G01 X24.6101 Y22.1093 
G01 X24.6453 Y21.9321 
G01 X24.7144 Y21.7653 
G01 X24.8148 Y21.6151 
G01 X24.9425 Y21.4874 
G01 X25.0927 Y21.3870 
G01 X25.2595 Y21.3179 
G01 X25.4367 Y21.2827 
G01 X25.6173 Y21.2827 
G01 X25.7945 Y21.3179 
G01 X25.9613 Y21.3870 
G01 X26.1115 Y21.4874 
G01 X26.2392 Y21.6151 
G01 X26.3396 Y21.7653 
G01 X26.4087 Y21.9321 
G01 X26.4439 Y22.1093 
G00 Z0.5080 
G00 X16.2839 Y22.1093 
G01 Z-0.2540 F254.00 
G01 X16.2839 Y23.6107 
G01 X16.2487 Y23.7879 
G01 X16.1796 Y23.9547 
G01 X16.0792 Y24.1049 
G01 X15.9515 Y24.2326 
G01 X15.8013 Y24.3330 
G01 X15.6345 Y24.4021 
G01 X15.4573 Y24.4373 
G01 X15.2767 Y24.4373 
G01 X15.0995 Y24.4021 
G01 X14.9327 Y24.3330 
G01 X14.7825 Y24.2326 
G01 X14.6548 Y24.1049 
G01 X14.5544 Y23.9547 
G01 X14.4853 Y23.7879 
G01 X14.4501 Y23.6107 
G01 X14.4501 Y22.1093 
G01 X14.4853 Y21.9321 
G01 X14.5544 Y21.7653 
G01 X14.6548 Y21.6151 
G01 X14.7825 Y21.4874 
G01 X14.9327 Y21.3870 
G01 X15.0995 Y21.3179 
G01 X15.2767 Y21.2827 
G01 X15.4573 Y21.2827 
G01 X15.6345 Y21.3179 
G01 X15.8013 Y21.3870 
G01 X15.9515 Y21.4874 
G01 X16.0792 Y21.6151 
G01 X16.1796 Y21.7653 
G01 X16.2487 Y21.9321 
G01 X16.2839 Y22.1093 
G00 Z0.5080 
G00 X18.8239 Y29.7293 
G01 Z-0.2540 F254.00 
G01 X18.8239 Y31.2307 
G01 X18.7887 Y31.4079 
G01 X18.7196 Y31.5747 
G01 X18.6192 Y31.7249 
G01 X18.4915 Y31.8526 
G01 X18.3413 Y31.9530 
G01 X18.1745 Y32.0221 
G01 X17.9973 Y32.0573 
G01 X17.8167 Y32.0573 
G01 X17.6395 Y32.0221 
G01 X17.4727 Y31.9530 
G01 X17.3225 Y31.8526 
G01 X17.1948 Y31.7249 
G01 X17.0944 Y31.5747 
G01 X17.0253 Y31.4079 
G01 X16.9901 Y31.2307 
G01 X16.9901 Y29.7293 
G01 X17.0253 Y29.5521 
G01 X17.0944 Y29.3853 
G01 X17.1948 Y29.2351 
G01 X17.3225 Y29.1074 
G01 X17.4727 Y29.0070 
G01 X17.6395 Y28.9379 
G01 X17.8167 Y28.9027 
G01 X17.9973 Y28.9027 
G01 X18.1745 Y28.9379 
G01 X18.3413 Y29.0070 
G01 X18.4915 Y29.1074 
G01 X18.6192 Y29.2351 
G01 X18.7196 Y29.3853 
G01 X18.7887 Y29.5521 
G01 X18.8239 Y29.7293 
G00 Z0.5080 
G00 X23.9039 Y29.7293 
G01 Z-0.2540 F254.00 
G01 X23.9039 Y31.2307 
G01 X23.8687 Y31.4079 
G01 X23.7996 Y31.5747 
G01 X23.6992 Y31.7249 
G01 X23.5715 Y31.8526 
G01 X23.5165 Y31.8894 
G01 X23.5165 Y32.4497 
G01 X23.4913 Y32.5765 
G01 X23.4418 Y32.6960 
G01 X23.3700 Y32.8035 
G01 X23.2785 Y32.8950 
G01 X22.8815 Y33.2919 
G01 X22.8815 Y34.3547 
G01 X22.8563 Y34.4815 
G01 X22.8317 Y34.5409 
G01 X22.8465 Y34.5962 
G01 X22.8465 Y36.2638 
G01 X22.8291 Y36.3290 
G01 X22.7953 Y36.3875 
G01 X22.7475 Y36.4353 
G01 X22.6890 Y36.4691 
G01 X22.6238 Y36.4865 
G01 X20.5562 Y36.4865 
G01 X20.4910 Y36.4691 
G01 X20.4325 Y36.4353 
G01 X20.3847 Y36.3875 
G01 X20.3509 Y36.3290 
G01 X20.3335 Y36.2638 
G01 X20.3335 Y34.5962 
G01 X20.3509 Y34.5310 
G01 X20.3847 Y34.4725 
G01 X20.4325 Y34.4247 
G01 X20.4910 Y34.3909 
G01 X20.5562 Y34.3735 
G01 X21.2131 Y34.3735 
G01 X21.5685 Y34.0181 
G01 X21.5685 Y33.0522 
G01 X20.1415 Y34.4791 
G01 X20.1415 Y34.9851 
G01 X20.1104 Y35.1012 
G01 X20.0503 Y35.2053 
G01 X19.9653 Y35.2903 
G01 X18.7183 Y36.5374 
G01 X18.7376 Y36.5485 
G01 X18.7854 Y36.5963 
G01 X18.8192 Y36.6548 
G01 X18.8366 Y36.7200 
G01 X18.8366 Y37.9560 
G01 X18.8192 Y38.0212 
G01 X18.7971 Y38.0594 
G01 X19.2665 Y37.5900 
G01 X19.3740 Y37.5182 
G01 X19.4935 Y37.4687 
G01 X19.6203 Y37.4435 
G01 X20.3335 Y37.4435 
G01 X20.3335 Y37.3962 
G01 X20.3509 Y37.3310 
G01 X20.3847 Y37.2725 
G01 X20.4325 Y37.2247 
G01 X20.4910 Y37.1909 
G01 X20.5562 Y37.1735 
G01 X22.6238 Y37.1735 
G01 X22.6890 Y37.1909 
G01 X22.7475 Y37.2247 
G01 X22.7953 Y37.2725 
G01 X22.8291 Y37.3310 
G01 X22.8465 Y37.3962 
G01 X22.8465 Y39.0638 
G01 X22.8291 Y39.1290 
G01 X22.7953 Y39.1875 
G01 X22.7475 Y39.2353 
G01 X22.6890 Y39.2691 
G01 X22.6238 Y39.2865 
G01 X20.5562 Y39.2865 
G01 X20.4910 Y39.2691 
G01 X20.4325 Y39.2353 
G01 X20.3847 Y39.1875 
G01 X20.3509 Y39.1290 
G01 X20.3335 Y39.0638 
G01 X20.3335 Y38.7565 
G01 X19.9569 Y38.7565 
G01 X19.5600 Y39.1535 
G01 X19.4685 Y39.2450 
G01 X19.3610 Y39.3168 
G01 X19.2415 Y39.3663 
G01 X19.1147 Y39.3915 
G01 X18.8366 Y39.3915 
G01 X18.8366 Y39.4800 
G01 X18.8192 Y39.5452 
G01 X18.7854 Y39.6037 
G01 X18.7376 Y39.6515 
G01 X18.6791 Y39.6853 
G01 X18.6139 Y39.7027 
G01 X16.9461 Y39.7027 
G01 X16.8809 Y39.6853 
G01 X16.8224 Y39.6515 
G01 X16.7746 Y39.6037 
G01 X16.7408 Y39.5452 
G01 X16.7234 Y39.4800 
G01 X16.7234 Y39.3915 
G01 X15.6616 Y39.3915 
G01 X15.6616 Y39.4800 
G01 X15.6442 Y39.5452 
G01 X15.6104 Y39.6037 
G01 X15.5626 Y39.6515 
G01 X15.5041 Y39.6853 
G01 X15.4389 Y39.7027 
G01 X13.7711 Y39.7027 
G01 X13.7059 Y39.6853 
G01 X13.6474 Y39.6515 
G01 X13.5996 Y39.6037 
G01 X13.5658 Y39.5452 
G01 X13.5484 Y39.4800 
G01 X13.5484 Y39.3915 
G01 X12.4866 Y39.3915 
G01 X12.4866 Y39.4800 
G01 X12.4692 Y39.5452 
G01 X12.4354 Y39.6037 
G01 X12.3876 Y39.6515 
G01 X12.3291 Y39.6853 
G01 X12.2639 Y39.7027 
G01 X10.5961 Y39.7027 
G01 X10.5309 Y39.6853 
G01 X10.4724 Y39.6515 
G01 X10.4246 Y39.6037 
G01 X10.3908 Y39.5452 
G01 X10.3734 Y39.4800 
G01 X10.3734 Y39.3915 
G01 X9.4603 Y39.3915 
G01 X9.3335 Y39.3663 
G01 X9.2140 Y39.3168 
G01 X9.1065 Y39.2450 
G01 X9.0150 Y39.1535 
G01 X8.9432 Y39.0460 
G01 X8.9115 Y38.9696 
G01 X8.9115 Y41.2535 
G01 X21.9531 Y41.2535 
G01 X24.2705 Y38.9361 
G01 X24.2705 Y37.3962 
G01 X24.2879 Y37.3310 
G01 X24.3217 Y37.2725 
G01 X24.3695 Y37.2247 
G01 X24.4280 Y37.1909 
G01 X24.4932 Y37.1735 
G01 X26.5608 Y37.1735 
G01 X26.6260 Y37.1909 
G01 X26.6845 Y37.2247 
G01 X26.7323 Y37.2725 
G01 X26.7661 Y37.3310 
G01 X26.7835 Y37.3962 
G01 X26.7835 Y37.4435 
G01 X27.9535 Y37.4435 
G01 X27.9535 Y37.3962 
G01 X27.9709 Y37.3310 
G01 X28.0047 Y37.2725 
G01 X28.0525 Y37.2247 
G01 X28.1110 Y37.1909 
G01 X28.1762 Y37.1735 
G01 X30.2438 Y37.1735 
G01 X30.3090 Y37.1909 
G01 X30.3675 Y37.2247 
G01 X30.4153 Y37.2725 
G01 X30.4491 Y37.3310 
G01 X30.4665 Y37.3962 
G01 X30.4665 Y37.4435 
G01 X31.7635 Y37.4435 
G01 X31.7635 Y37.3962 
G01 X31.7809 Y37.3310 
G01 X31.8147 Y37.2725 
G01 X31.8625 Y37.2247 
G01 X31.9210 Y37.1909 
G01 X31.9862 Y37.1735 
G01 X34.0538 Y37.1735 
G01 X34.1190 Y37.1909 
G01 X34.1775 Y37.2247 
G01 X34.2253 Y37.2725 
G01 X34.2591 Y37.3310 
G01 X34.2765 Y37.3962 
G01 X34.2765 Y39.0638 
G01 X34.2591 Y39.1290 
G01 X34.2253 Y39.1875 
G01 X34.1775 Y39.2353 
G01 X34.1190 Y39.2691 
G01 X34.0538 Y39.2865 
G01 X31.9862 Y39.2865 
G01 X31.9210 Y39.2691 
G01 X31.8625 Y39.2353 
G01 X31.8147 Y39.1875 
G01 X31.7809 Y39.1290 
G01 X31.7635 Y39.0638 
G01 X31.7635 Y38.7565 
G01 X30.4665 Y38.7565 
G01 X30.4665 Y39.0638 
G01 X30.4491 Y39.1290 
G01 X30.4153 Y39.1875 
G01 X30.3675 Y39.2353 
G01 X30.3090 Y39.2691 
G01 X30.2438 Y39.2865 
G01 X28.1762 Y39.2865 
G01 X28.1110 Y39.2691 
G01 X28.0525 Y39.2353 
G01 X28.0047 Y39.1875 
G01 X27.9709 Y39.1290 
G01 X27.9535 Y39.0638 
G01 X27.9535 Y38.7565 
G01 X26.7835 Y38.7565 
G01 X26.7835 Y39.0638 
G01 X26.7661 Y39.1290 
G01 X26.7323 Y39.1875 
G01 X26.6845 Y39.2353 
G01 X26.6260 Y39.2691 
G01 X26.5608 Y39.2865 
G01 X25.7769 Y39.2865 
G01 X22.7350 Y42.3285 
G01 X22.6435 Y42.4200 
G01 X22.5360 Y42.4918 
G01 X22.4165 Y42.5413 
G01 X22.2897 Y42.5665 
G01 X8.1903 Y42.5665 
G01 X8.0635 Y42.5413 
G01 X7.9440 Y42.4918 
G01 X7.8365 Y42.4200 
G01 X7.7450 Y42.3285 
G01 X7.6732 Y42.2210 
G01 X7.6237 Y42.1015 
G01 X7.5985 Y41.9747 
G01 X7.5985 Y36.4669 
G01 X6.7130 Y35.5815 
G01 X5.6503 Y35.5815 
G01 X5.5235 Y35.5563 
G01 X5.4040 Y35.5068 
G01 X5.2965 Y35.4350 
G01 X5.2050 Y35.3435 
G01 X5.1763 Y35.3005 
G01 X4.8615 Y35.3005 
G01 X4.6662 Y35.2617 
G01 X4.4823 Y35.1855 
G01 X4.3168 Y35.0749 
G01 X4.1761 Y34.9342 
G01 X4.0655 Y34.7687 
G01 X3.9893 Y34.5848 
G01 X3.9505 Y34.3895 
G01 X3.9505 Y34.1905 
G01 X3.9893 Y33.9952 
G01 X4.0655 Y33.8113 
G01 X4.1761 Y33.6458 
G01 X4.3168 Y33.5051 
G01 X4.4823 Y33.3945 
G01 X4.6662 Y33.3183 
G01 X4.8615 Y33.2795 
G01 X6.5685 Y33.2795 
G01 X6.7638 Y33.3183 
G01 X6.9477 Y33.3945 
G01 X7.1132 Y33.5051 
G01 X7.2539 Y33.6458 
G01 X7.3645 Y33.8113 
G01 X7.4407 Y33.9952 
G01 X7.4795 Y34.1905 
G01 X7.4795 Y34.3895 
G01 X7.4627 Y34.4742 
G01 X7.4950 Y34.5065 
G01 X8.7650 Y35.7765 
G01 X8.8368 Y35.8840 
G01 X8.8685 Y35.9604 
G01 X8.8685 Y29.5250 
G01 X7.2674 Y31.1260 
G01 X7.3645 Y31.2713 
G01 X7.4407 Y31.4552 
G01 X7.4795 Y31.6505 
G01 X7.4795 Y31.8495 
G01 X7.4407 Y32.0448 
G01 X7.3645 Y32.2287 
G01 X7.2539 Y32.3942 
G01 X7.1132 Y32.5349 
G01 X6.9477 Y32.6455 
G01 X6.7638 Y32.7217 
G01 X6.5685 Y32.7605 
G01 X4.8615 Y32.7605 
G01 X4.6662 Y32.7217 
G01 X4.4823 Y32.6455 
G01 X4.3168 Y32.5349 
G01 X4.1761 Y32.3942 
G01 X4.0655 Y32.2287 
G01 X3.9893 Y32.0448 
G01 X3.9505 Y31.8495 
G01 X3.9505 Y31.6505 
G01 X3.9893 Y31.4552 
G01 X4.0655 Y31.2713 
G01 X4.1761 Y31.1058 
G01 X4.3168 Y30.9651 
G01 X4.4823 Y30.8545 
G01 X4.6662 Y30.7783 
G01 X4.8615 Y30.7395 
G01 X5.7971 Y30.7395 
G01 X8.2335 Y28.3031 
G01 X8.2335 Y26.4295 
G01 X7.9322 Y26.4295 
G01 X7.8670 Y26.4121 
G01 X7.8085 Y26.3783 
G01 X7.7607 Y26.3305 
G01 X7.7269 Y26.2720 
G01 X7.7095 Y26.2068 
G01 X7.7095 Y24.3392 
G01 X7.7269 Y24.2740 
G01 X7.7607 Y24.2155 
G01 X7.8085 Y24.1677 
G01 X7.8670 Y24.1339 
G01 X7.9322 Y24.1165 
G01 X8.2335 Y24.1165 
G01 X8.2335 Y22.7235 
G01 X7.6052 Y22.7235 
G01 X7.5400 Y22.7061 
G01 X7.4815 Y22.6723 
G01 X7.4337 Y22.6245 
G01 X7.3999 Y22.5660 
G01 X7.3825 Y22.5008 
G01 X7.3825 Y20.9332 
G01 X7.3999 Y20.8680 
G01 X7.4337 Y20.8095 
G01 X7.4815 Y20.7617 
G01 X7.5400 Y20.7279 
G01 X7.6052 Y20.7105 
G01 X8.2335 Y20.7105 
G01 X8.2335 Y17.5321 
G01 X8.1646 Y17.3659 
G01 X8.1255 Y17.1691 
G01 X8.1255 Y15.4445 
G01 X8.1646 Y15.2477 
G01 X8.2335 Y15.0815 
G01 X8.2335 Y10.1105 
G01 X8.1887 Y10.0919 
G01 X8.0396 Y9.9923 
G01 X7.9127 Y9.8654 
G01 X7.8131 Y9.7163 
G01 X7.7445 Y9.5506 
G01 X7.7095 Y9.3747 
G01 X7.7095 Y9.1953 
G01 X7.7445 Y9.0194 
G01 X7.8131 Y8.8537 
G01 X7.9127 Y8.7046 
G01 X8.0396 Y8.5777 
G01 X8.1887 Y8.4781 
G01 X8.3544 Y8.4094 
G01 X8.5303 Y8.3745 
G01 X8.7097 Y8.3745 
G01 X8.8856 Y8.4094 
G01 X9.0513 Y8.4781 
G01 X9.2004 Y8.5777 
G01 X9.3273 Y8.7046 
G01 X9.4269 Y8.8537 
G01 X9.4955 Y9.0194 
G01 X9.5305 Y9.1953 
G01 X9.5305 Y9.3747 
G01 X9.5300 Y9.3773 
G01 X9.5302 Y9.3780 
G01 X9.5416 Y9.4219 
G01 X9.5427 Y9.4413 
G01 X9.5465 Y9.4603 
G01 X9.5465 Y9.5057 
G01 X9.5492 Y9.5510 
G01 X9.5465 Y9.5702 
G01 X9.5465 Y11.7213 
G01 X9.6155 Y11.6181 
G01 X9.7035 Y11.5301 
G01 X9.7035 Y9.5675 
G01 X9.7002 Y9.5502 
G01 X9.7035 Y9.5076 
G01 X9.7035 Y9.4649 
G01 X9.7080 Y9.4479 
G01 X9.7093 Y9.4304 
G01 X9.7235 Y9.3900 
G01 X9.7346 Y9.3488 
G01 X9.7434 Y9.3335 
G01 X9.7492 Y9.3170 
G01 X9.7495 Y9.3166 
G01 X9.7495 Y9.1953 
G01 X9.7844 Y9.0194 
G01 X9.8531 Y8.8537 
G01 X9.9527 Y8.7046 
G01 X10.0796 Y8.5777 
G01 X10.2287 Y8.4781 
G01 X10.3944 Y8.4094 
G01 X10.5703 Y8.3745 
G01 X10.7497 Y8.3745 
G01 X10.9256 Y8.4094 
G01 X11.0913 Y8.4781 
G01 X11.2404 Y8.5777 
G01 X11.3673 Y8.7046 
G01 X11.4669 Y8.8537 
G01 X11.5355 Y9.0194 
G01 X11.5705 Y9.1953 
G01 X11.5705 Y9.3747 
G01 X11.5355 Y9.5506 
G01 X11.4669 Y9.7163 
G01 X11.3673 Y9.8654 
G01 X11.2404 Y9.9923 
G01 X11.0913 Y10.0919 
G01 X10.9256 Y10.1605 
G01 X10.7497 Y10.1955 
G01 X10.6165 Y10.1955 
G01 X10.6165 Y11.5301 
G01 X10.7045 Y11.6181 
G01 X10.7812 Y11.7329 
G01 X10.8341 Y11.8605 
G01 X10.8610 Y11.9960 
G01 X10.8610 Y12.1340 
G01 X10.8341 Y12.2695 
G01 X10.7812 Y12.3971 
G01 X10.7045 Y12.5119 
G01 X10.6069 Y12.6095 
G01 X10.4921 Y12.6863 
G01 X10.3645 Y12.7391 
G01 X10.2290 Y12.7660 
G01 X10.0910 Y12.7660 
G01 X9.9555 Y12.7391 
G01 X9.8279 Y12.6863 
G01 X9.7131 Y12.6095 
G01 X9.6155 Y12.5119 
G01 X9.5465 Y12.4087 
G01 X9.5465 Y14.6091 
G01 X9.6265 Y14.6422 
G01 X9.7933 Y14.7536 
G01 X9.9352 Y14.8955 
G01 X10.0466 Y15.0623 
G01 X10.1234 Y15.2477 
G01 X10.1625 Y15.4445 
G01 X10.1625 Y17.1691 
G01 X10.1234 Y17.3659 
G01 X10.0466 Y17.5513 
G01 X9.9352 Y17.7181 
G01 X9.7933 Y17.8600 
G01 X9.6265 Y17.9714 
G01 X9.5465 Y18.0045 
G01 X9.5465 Y20.7105 
G01 X9.6228 Y20.7105 
G01 X9.6880 Y20.7279 
G01 X9.7465 Y20.7617 
G01 X9.7943 Y20.8095 
G01 X9.8281 Y20.8680 
G01 X9.8455 Y20.9332 
G01 X9.8455 Y22.5008 
G01 X9.8281 Y22.5660 
G01 X9.7943 Y22.6245 
G01 X9.7465 Y22.6723 
G01 X9.6880 Y22.7061 
G01 X9.6228 Y22.7235 
G01 X9.5465 Y22.7235 
G01 X9.5465 Y24.1165 
G01 X9.5998 Y24.1165 
G01 X9.6650 Y24.1339 
G01 X9.7235 Y24.1677 
G01 X9.7713 Y24.2155 
G01 X9.8051 Y24.2740 
G01 X9.8225 Y24.3392 
G01 X9.8225 Y26.2068 
G01 X9.8051 Y26.2720 
G01 X9.7713 Y26.3305 
G01 X9.7235 Y26.3783 
G01 X9.6650 Y26.4121 
G01 X9.5998 Y26.4295 
G01 X9.5465 Y26.4295 
G01 X9.5465 Y28.3031 
G01 X10.0350 Y28.7915 
G01 X10.1068 Y28.8990 
G01 X10.1563 Y29.0185 
G01 X10.1815 Y29.1453 
G01 X10.1815 Y38.0785 
G01 X10.4239 Y38.0785 
G01 X10.3908 Y38.0212 
G01 X10.3734 Y37.9560 
G01 X10.3734 Y36.7200 
G01 X10.3908 Y36.6548 
G01 X10.4246 Y36.5963 
G01 X10.4724 Y36.5485 
G01 X10.4917 Y36.5374 
G01 X10.4297 Y36.4753 
G01 X10.3696 Y36.3712 
G01 X10.3385 Y36.2551 
G01 X10.3385 Y28.4749 
G01 X10.2505 Y28.3869 
G01 X10.1737 Y28.2721 
G01 X10.1209 Y28.1445 
G01 X10.0940 Y28.0090 
G01 X10.0940 Y27.8710 
G01 X10.1209 Y27.7355 
G01 X10.1737 Y27.6079 
G01 X10.2505 Y27.4931 
G01 X10.3481 Y27.3955 
G01 X10.4629 Y27.3187 
G01 X10.5905 Y27.2659 
G01 X10.7260 Y27.2390 
G01 X10.8640 Y27.2390 
G01 X10.9995 Y27.2659 
G01 X11.1271 Y27.3187 
G01 X11.2419 Y27.3955 
G01 X11.3395 Y27.4931 
G01 X11.4162 Y27.6079 
G01 X11.4691 Y27.7355 
G01 X11.4960 Y27.8710 
G01 X11.4960 Y28.0090 
G01 X11.4691 Y28.1445 
G01 X11.4162 Y28.2721 
G01 X11.3395 Y28.3869 
G01 X11.2515 Y28.4749 
G01 X11.2515 Y36.0059 
G01 X11.7103 Y36.4647 
G01 X11.7429 Y36.4973 
G01 X12.2639 Y36.4973 
G01 X12.3291 Y36.5147 
G01 X12.3876 Y36.5485 
G01 X12.4354 Y36.5963 
G01 X12.4692 Y36.6548 
G01 X12.4866 Y36.7200 
G01 X12.4866 Y37.9560 
G01 X12.4692 Y38.0212 
G01 X12.4361 Y38.0785 
G01 X13.5989 Y38.0785 
G01 X13.5658 Y38.0212 
G01 X13.5484 Y37.9560 
G01 X13.5484 Y36.7200 
G01 X13.5658 Y36.6548 
G01 X13.5996 Y36.5963 
G01 X13.6474 Y36.5485 
G01 X13.7059 Y36.5147 
G01 X13.7711 Y36.4973 
G01 X14.1485 Y36.4973 
G01 X14.1485 Y33.5549 
G01 X14.0605 Y33.4669 
G01 X13.9837 Y33.3521 
G01 X13.9459 Y33.2607 
G01 X13.9168 Y33.3310 
G01 X13.8450 Y33.4385 
G01 X13.7535 Y33.5300 
G01 X12.7038 Y34.5797 
G01 X12.6863 Y34.6221 
G01 X12.6095 Y34.7369 
G01 X12.5119 Y34.8345 
G01 X12.3971 Y34.9113 
G01 X12.2695 Y34.9641 
G01 X12.1340 Y34.9910 
G01 X11.9960 Y34.9910 
G01 X11.8605 Y34.9641 
G01 X11.7329 Y34.9113 
G01 X11.6181 Y34.8345 
G01 X11.5205 Y34.7369 
G01 X11.4437 Y34.6221 
G01 X11.3909 Y34.4945 
G01 X11.3640 Y34.3590 
G01 X11.3640 Y34.2210 
G01 X11.3909 Y34.0855 
G01 X11.4437 Y33.9579 
G01 X11.5205 Y33.8431 
G01 X11.6181 Y33.7455 
G01 X11.7329 Y33.6687 
G01 X11.7753 Y33.6512 
G01 X12.6785 Y32.7480 
G01 X12.6785 Y32.3203 
G01 X12.7037 Y32.1935 
G01 X12.7532 Y32.0740 
G01 X12.8250 Y31.9665 
G01 X14.0950 Y30.6965 
G01 X14.1865 Y30.6050 
G01 X14.2940 Y30.5332 
G01 X14.4135 Y30.4837 
G01 X14.4501 Y30.4764 
G01 X14.4501 Y29.7293 
G01 X14.4853 Y29.5521 
G01 X14.5544 Y29.3853 
G01 X14.6548 Y29.2351 
G01 X14.7825 Y29.1074 
G01 X14.9327 Y29.0070 
G01 X15.0995 Y28.9379 
G01 X15.2767 Y28.9027 
G01 X15.4573 Y28.9027 
G01 X15.6345 Y28.9379 
G01 X15.8013 Y29.0070 
G01 X15.9515 Y29.1074 
G01 X16.0792 Y29.2351 
G01 X16.1796 Y29.3853 
G01 X16.2487 Y29.5521 
G01 X16.2839 Y29.7293 
G01 X16.2839 Y31.2307 
G01 X16.2487 Y31.4079 
G01 X16.1796 Y31.5747 
G01 X16.0792 Y31.7249 
G01 X15.9515 Y31.8526 
G01 X15.8013 Y31.9530 
G01 X15.6345 Y32.0221 
G01 X15.4573 Y32.0573 
G01 X15.2767 Y32.0573 
G01 X15.0995 Y32.0221 
G01 X14.9327 Y31.9530 
G01 X14.7905 Y31.8580 
G01 X14.2030 Y32.4455 
G01 X14.2729 Y32.3987 
G01 X14.4005 Y32.3459 
G01 X14.5360 Y32.3190 
G01 X14.6740 Y32.3190 
G01 X14.8095 Y32.3459 
G01 X14.9371 Y32.3987 
G01 X15.0519 Y32.4755 
G01 X15.1495 Y32.5731 
G01 X15.2263 Y32.6879 
G01 X15.2791 Y32.8155 
G01 X15.3060 Y32.9509 
G01 X15.3060 Y33.0890 
G01 X15.2791 Y33.2245 
G01 X15.2263 Y33.3521 
G01 X15.1495 Y33.4669 
G01 X15.0615 Y33.5549 
G01 X15.0615 Y36.4973 
G01 X15.4389 Y36.4973 
G01 X15.5041 Y36.5147 
G01 X15.5626 Y36.5485 
G01 X15.6104 Y36.5963 
G01 X15.6442 Y36.6548 
G01 X15.6616 Y36.7200 
G01 X15.6616 Y37.9560 
G01 X15.6442 Y38.0212 
G01 X15.6111 Y38.0785 
G01 X16.7739 Y38.0785 
G01 X16.7408 Y38.0212 
G01 X16.7234 Y37.9560 
G01 X16.7234 Y36.7200 
G01 X16.7408 Y36.6548 
G01 X16.7746 Y36.5963 
G01 X16.8224 Y36.5485 
G01 X16.8809 Y36.5147 
G01 X16.9461 Y36.4973 
G01 X17.4671 Y36.4973 
G01 X19.2285 Y34.7359 
G01 X19.2285 Y34.2299 
G01 X19.2596 Y34.1138 
G01 X19.3197 Y34.0097 
G01 X19.4047 Y33.9247 
G01 X19.4047 Y33.9247 
G01 X21.1335 Y32.1959 
G01 X21.1335 Y31.7507 
G01 X21.0315 Y31.8526 
G01 X20.8813 Y31.9530 
G01 X20.7145 Y32.0221 
G01 X20.5373 Y32.0573 
G01 X20.3567 Y32.0573 
G01 X20.1795 Y32.0221 
G01 X20.0127 Y31.9530 
G01 X19.8625 Y31.8526 
G01 X19.7348 Y31.7249 
G01 X19.6344 Y31.5747 
G01 X19.5653 Y31.4079 
G01 X19.5301 Y31.2307 
G01 X19.5301 Y29.7293 
G01 X19.5653 Y29.5521 
G01 X19.6344 Y29.3853 
G01 X19.7348 Y29.2351 
G01 X19.8625 Y29.1074 
G01 X20.0127 Y29.0070 
G01 X20.1795 Y28.9379 
G01 X20.3567 Y28.9027 
G01 X20.5373 Y28.9027 
G01 X20.7145 Y28.9379 
G01 X20.8813 Y29.0070 
G01 X21.0315 Y29.1074 
G01 X21.1335 Y29.2093 
G01 X21.1335 Y29.1499 
G01 X21.1646 Y29.0338 
G01 X21.2247 Y28.9297 
G01 X22.4947 Y27.6597 
G01 X22.4947 Y27.6597 
G01 X22.5797 Y27.5747 
G01 X22.6838 Y27.5146 
G01 X22.7999 Y27.4835 
G01 X30.5401 Y27.4835 
G01 X30.6562 Y27.5146 
G01 X30.7603 Y27.5747 
G01 X30.8453 Y27.6597 
G01 X30.9054 Y27.7638 
G01 X30.9365 Y27.8799 
G01 X30.9365 Y28.9636 
G01 X31.0413 Y29.0070 
G01 X31.1915 Y29.1074 
G01 X31.3192 Y29.2351 
G01 X31.4196 Y29.3853 
G01 X31.4887 Y29.5521 
G01 X31.5239 Y29.7293 
G01 X31.5239 Y31.2307 
G01 X31.4887 Y31.4079 
G01 X31.4196 Y31.5747 
G01 X31.3192 Y31.7249 
G01 X31.1915 Y31.8526 
G01 X31.0413 Y31.9530 
G01 X30.9365 Y31.9964 
G01 X30.9365 Y32.1959 
G01 X33.1141 Y34.3735 
G01 X34.0538 Y34.3735 
G01 X34.1190 Y34.3909 
G01 X34.1775 Y34.4247 
G01 X34.2253 Y34.4725 
G01 X34.2591 Y34.5310 
G01 X34.2765 Y34.5962 
G01 X34.2765 Y35.9286 
G01 X34.3037 Y35.8629 
G01 X34.3805 Y35.7481 
G01 X34.4685 Y35.6601 
G01 X34.4685 Y34.4791 
G01 X32.7397 Y32.7503 
G01 X32.6547 Y32.6653 
G01 X32.5946 Y32.5612 
G01 X32.5635 Y32.4451 
G01 X32.5635 Y31.8533 
G01 X32.5625 Y31.8526 
G01 X32.4348 Y31.7249 
G01 X32.3344 Y31.5747 
G01 X32.2653 Y31.4079 
G01 X32.2301 Y31.2307 
G01 X32.2301 Y29.7293 
G01 X32.2653 Y29.5521 
G01 X32.3344 Y29.3853 
G01 X32.4348 Y29.2351 
G01 X32.5625 Y29.1074 
G01 X32.7127 Y29.0070 
G01 X32.8795 Y28.9379 
G01 X33.0567 Y28.9027 
G01 X33.2373 Y28.9027 
G01 X33.4145 Y28.9379 
G01 X33.5813 Y29.0070 
G01 X33.7315 Y29.1074 
G01 X33.8335 Y29.2093 
G01 X33.8335 Y27.2049 
G01 X33.7455 Y27.1169 
G01 X33.6687 Y27.0021 
G01 X33.6159 Y26.8745 
G01 X33.5890 Y26.7390 
G01 X33.5890 Y26.6010 
G01 X33.6159 Y26.4655 
G01 X33.6687 Y26.3379 
G01 X33.7455 Y26.2231 
G01 X33.8431 Y26.1255 
G01 X33.9579 Y26.0487 
G01 X34.0855 Y25.9959 
G01 X34.2210 Y25.9690 
G01 X34.3590 Y25.9690 
G01 X34.4945 Y25.9959 
G01 X34.6221 Y26.0487 
G01 X34.7369 Y26.1255 
G01 X34.8345 Y26.2231 
G01 X34.9113 Y26.3379 
G01 X34.9641 Y26.4655 
G01 X34.9910 Y26.6010 
G01 X34.9910 Y26.7390 
G01 X34.9641 Y26.8745 
G01 X34.9113 Y27.0021 
G01 X34.8345 Y27.1169 
G01 X34.7465 Y27.2049 
G01 X34.7465 Y32.1959 
G01 X35.7491 Y33.1985 
G01 X36.9301 Y33.1985 
G01 X37.0181 Y33.1105 
G01 X37.1329 Y33.0337 
G01 X37.2605 Y32.9809 
G01 X37.3959 Y32.9540 
G01 X37.5340 Y32.9540 
G01 X37.6695 Y32.9809 
G01 X37.7971 Y33.0337 
G01 X37.9119 Y33.1105 
G01 X38.0095 Y33.2081 
G01 X38.0785 Y33.3113 
G01 X38.0785 Y30.7519 
G01 X37.0465 Y29.7200 
G01 X36.9550 Y29.6285 
G01 X36.8832 Y29.5210 
G01 X36.8337 Y29.4015 
G01 X36.8085 Y29.2747 
G01 X36.8085 Y23.1750 
G01 X36.7050 Y23.2785 
G01 X36.7050 Y23.2785 
G01 X36.6135 Y23.3700 
G01 X36.6039 Y23.3764 
G01 X36.6039 Y23.6107 
G01 X36.5687 Y23.7879 
G01 X36.4996 Y23.9547 
G01 X36.3992 Y24.1049 
G01 X36.2715 Y24.2326 
G01 X36.1213 Y24.3330 
G01 X35.9545 Y24.4021 
G01 X35.7773 Y24.4373 
G01 X35.5967 Y24.4373 
G01 X35.4195 Y24.4021 
G01 X35.2527 Y24.3330 
G01 X35.1025 Y24.2326 
G01 X34.9748 Y24.1049 
G01 X34.8744 Y23.9547 
G01 X34.8053 Y23.7879 
G01 X34.7701 Y23.6107 
G01 X34.7701 Y22.1093 
G01 X34.8053 Y21.9321 
G01 X34.8744 Y21.7653 
G01 X34.9748 Y21.6151 
G01 X35.1025 Y21.4874 
G01 X35.2527 Y21.3870 
G01 X35.4195 Y21.3179 
G01 X35.5967 Y21.2827 
G01 X35.7773 Y21.2827 
G01 X35.9545 Y21.3179 
G01 X36.1213 Y21.3870 
G01 X36.2715 Y21.4874 
G01 X36.3992 Y21.6151 
G01 X36.4442 Y21.6823 
G01 X36.9550 Y21.1715 
G01 X36.9550 Y21.1715 
G01 X37.0465 Y21.0800 
G01 X37.0465 Y21.0800 
G01 X40.2530 Y17.8735 
G01 X40.1065 Y17.9714 
